($Message("IMPORTANT! Remember to load the corresponding machine settings file for the example. Use the [Files -> Load machine settings] to open machine settings file.") )
($SetPartSize(420, 120, 10, 1) )
( ** LOAD MACHINE SETTINGS Fanuc Mill.prf BEFORE SIMULATE ** )
( CALLS SUB PROGRAMS 5001.NC - 5013.NC )
G40 G54 G80
T26
G90 G00 X11.448 Y33.477 Z1.
M03 F100 G91
M98 P5001 L3 (W * 3)
G00 X0. Y-3.
M98 P5002 ( . )
G00 X23.043 Y18.245
M98 P5003 ( C )
G00 X7.965 Y-18.245
M98 P5004 ( N )
G00 X33.925 Y18.245
M98 P5003 ( C )
G00 X6.72 Y-3.448
M98 P5005 ( S )
G00 X21.208 Y44.103
M98 P5006 ( I )
G00 X9.867
M98 P5007 ( M ) 
G00 X44.217
M98 P5008 ( U )
G00 X9.604
M98 P5009 ( L )
G00 X22.06 Y6.117
M98 P5010 ( A )
G00 X17.101 Y-17.526
M98 P5011 ( T )
G00 X3.704 Y17.383
M98 P5012 ( O )
G00 X20.028 Y-24.875
M98 P5013 ( R )
G00 X14.849
M98 P5002 ( . )
G00 X23.043 Y18.245
M98 P5003 ( C )
G00 X6.654 Y6.608
M98 P5012 ( O )
G00 X19.962 Y-24.875
M98 P5007 ( M )
G00 G91 Z150 M09
G28 Z0 M19 
M30
%