($Message("IMPORTANT! Remember to load the corresponding machine settings file for the example. Use the [Files -> Load machine settings] to open machine settings file.") )

%
N40 T10
N50 G00 X35.5 Z101
N60 G01 X2.717 F200 G96 S800 M03 M08 
N70 G01 Z0.217
N80 G01 X2.835 Z0.295
N90 G00 Z3.976 M09
N100 G01 X2.638 M08
N110 G01 Z0.249
N120 G01 X2.756 Z0.327
N130 G00 Z3.976 M09
N140 G01 X2.559 M08
N150 G01 Z0.281
N160 G01 X2.677 Z0.36
N170 G00 Z3.976 M09
N180 G01 X2.48 M08
N190 G01 Z0.313
N200 G01 X2.598 Z0.392
N210 G00 Z3.976 M09
N220 G01 X2.402 M08
N230 G01 Z0.345
N240 G01 X2.52 Z0.424
N250 G00 Z3.976 M09
N260 G01 X2.323 M08
N270 G01 Z0.378
N280 G01 X2.441 Z0.456
N290 G00 Z3.976 M09
N300 G01 X2.244 M08
N310 G01 Z1.05
N320 G01 X2.362 Z1.128
N330 G00 Z3.976 M09
N340 G01 X2.165 M08
N350 G01 Z1.087
N360 G01 X2.283 Z1.165
N370 G00 Z3.976 M09
N380 G01 X2.087 M08
N390 G01 Z1.101
N400 G01 X2.205 Z1.179
N410 G00 Z3.976 M09
N420 G01 X2.008 M08
N430 G01 Z1.102
N440 G01 X2.126 Z1.181
N450 G00 Z3.976 M09
N460 G01 X1.929 M08
N470 G01 Z1.102
N480 G01 X2.047 Z1.181
N490 G00 Z3.976 M09
N500 G01 X1.85 M08
N510 G01 Z1.102
N520 G01 X1.969 Z1.181
N530 G00 Z3.976 M09
N540 G01 X1.772 M08
N550 G01 Z1.614
N560 G01 X1.89 Z1.693
N570 G00 Z3.976 M09
N580 G01 X1.693 M08
N590 G01 Z1.654
N600 G01 X1.811 Z1.732
N610 G00 Z3.976 M09
N620 G01 X1.614 M08
N630 G01 Z1.693
N640 G01 X1.732 Z1.772
N650 G00 Z3.976 M09
N660 G01 X1.535 M08
N670 G01 Z1.732
N680 G01 X1.654 Z1.811
N690 G00 Z3.976 M09
N700 G01 X1.457 M08
N710 G01 Z2.894
N720 G01 X1.575 Z2.972
N730 G00 Z3.976 M09
N740 G01 X1.378 M08
N750 G01 Z2.972
N760 G01 X1.496 Z3.051
N770 G00 Z3.976 M09
N780 G01 X1.299 M08
N790 G01 Z2.972
N800 G01 X1.417 Z3.051
N810 G00 Z3.976 M09
N820 G01 X1.22 M08
N830 G01 Z2.972
N840 G01 X1.339 Z3.051
N850 G00 Z3.976 M09
N860 G01 X1.142 M08
N870 G01 Z3.346
N880 G01 X1.26 Z3.425
N890 G00 Z3.976 M09
N900 G01 X1.063 M08
N910 G01 Z3.386
N920 G01 X1.181 Z3.465
N930 G00 Z3.976 M09
N940 G01 X0.984 M08
N950 G01 Z3.425
N960 G01 X1.102 Z3.504
N970 G00 Z3.976 M09
N980 G01 X0.906 M08
N990 G01 Z3.465
N1000 G01 X1.024 Z3.543
N1010 G00 Z3.976 M09
N1020 G01 X0.827 M08
N1030 G01 Z3.504
N1040 G01 X0.945 Z3.583
N1050 G00 Z3.976 M09
N1060 G01 X0.748 M08
N1070 G01 Z3.543
N1080 G01 X0.866 Z3.622
N1090 G00 Z3.976 M09
N1100 G01 X0.669 M08
N1110 G01 Z3.715
N1120 G01 X0.787 Z3.794
N1130 G00 Z3.976 M09
N1140 G01 X0.591 M08
N1150 G01 Z3.78
N1160 G01 X0.709 Z3.858
N1170 G00 Z3.976 M09
N1180 G01 X0.512 M08
N1190 G01 Z3.824
N1200 G01 X0.63 Z3.903
N1210 G00 Z3.976 M09
N1220 G01 X0.433 M08
N1230 G01 Z3.858
N1240 G01 X0.551 Z3.937
N1250 G00 Z3.976 M09
N1260 G01 X0.354 M08
N1270 G01 Z3.884
N1280 G01 X0.472 Z3.963
N1290 G00 Z3.976 M09
N1300 G01 X0.276 M08
N1310 G01 Z3.904
N1320 G01 X0.394 Z3.976
N1330 G01 X0.197
N1340 G01 Z3.919
N1350 G01 X0.315 Z3.976
N1360 G01 X0.118
N1370 G01 Z3.929
N1380 G01 X0.236 Z3.976
N1390 G01 X0.039
N1400 G01 Z3.935
N1410 G01 X0.157 Z3.976
N1420 G01 X-0.039
N1430 G01 Z3.937
N1440 G03 X0.039 Z3.935 I0 K-0.394
N1450 G01 X0.157 Z4.014
N1460 G00 X2.795 M09
N1470 G00 Z3.976
N1480 G42 G01 X-0.039 Z3.937 M08 
N1490 G03 X0.748 Z3.543 I0 K-0.394
N1500 G01 X1.181 Z3.327
N1510 G01 Z2.972
N1520 G01 X1.378
N1530 G01 X1.457 Z2.894
N1540 G01 Z1.772
N1550 G01 X1.772 Z1.614
N1560 G01 Z1.102
N1570 G01 X2.047
N1580 G03 X2.283 Z0.984 I0 K-0.118
N1590 G01 Z0.394
N1600 G01 X2.717 Z0.217
N1610 G01 Z0
N1620 M30
