($Message("IMPORTANT! Remember to load the corresponding machine settings file for the example. Use the [Files -> Load machine settings] to open machine settings file.") )
($SetPartSize(4, 4, 1, 1) )
%
 G40 G54 G80 G90 
 M6 T24 (0.6 INCH)
 S1000 F100 M04
 G0 G43 H24 Z1.
 G0 X3.2 Y3.2
 G0 Z0.1
 G01 Z-0.075 F200
 G01 X3.8 Y3.5 F100
 G01 Y3.8
 G01 X0.2
 G01 Y0.2
 G01 X3.8
 G01 Y3.5
 G01 X0.5
 G01 Y0.5
 G01 X3.5
 G01 Y3.2
 G01 X0.8
 G01 Y0.8
 G01 X3.2
 G01 Y3.2
 G01 Z-0.15 F200
 G01 X3.8 Y3.5 F100
 G01 Y3.8
 G01 X0.2
 G01 Y0.2
 G01 X3.8
 G01 Y3.5
 G01 X0.5
 G01 Y0.5
 G01 X3.5
 G01 Y3.2
 G01 X0.8
 G01 Y0.8
 G01 X3.2
 G01 Y3.2
 G00 Z0.1
 G00 X3.5 Y4.1
 G01 Z0. F200
 G01 X0.5 Z-0.225
 G03 X-0.1 Y3.5 I0. J-0.6 F100
 G01 Y0.5
 G03 X0.5 Y-0.1 I0.6 J0.
 G01 X3.5
 G03 X4.1 Y0.5 I0. J0.6
 G01 Y3.5
 G03 X3.5 Y4.1 I-0.6 J0.
 G01 X0.5 Z-0.3 F200
 G03 X-0.1 Y3.5 I0. J-0.6 F100
 G01 Y0.5
 G03 X0.5 Y-0.1 I0.6 J0.
 G01 X3.5
 G03 X4.1 Y0.5 I0. J0.6
 G01 Y3.5
 G03 X3.5 Y4.1 I-0.6 J0.
 G01 X0.5 Z-0.375 F200
 G03 X-0.1 Y3.5 I0. J-0.6 F100
 G01 Y0.5
 G03 X0.5 Y-0.1 I0.6 J0.
 G01 X3.5
 G03 X4.1 Y0.5 I0. J0.6
 G01 Y3.5
 G03 X3.5 Y4.1 I-0.6 J0.
 G01 X0.5 Z-0.45 F200
 G03 X-0.1 Y3.5 I0. J-0.6 F100
 G01 Y0.5
 G03 X0.5 Y-0.1 I0.6 J0.
 G01 X3.5
 G03 X4.1 Y0.5 I0. J0.6
 G01 Y3.5
 G03 X3.5 Y4.1 I-0.6 J0.
 G01 X0.5 Z-0.525 F200
 G03 X-0.1 Y3.5 I0. J-0.6 F100
 G01 Y0.5
 G03 X0.5 Y-0.1 I0.6 J0.
 G01 X3.5
 G03 X4.1 Y0.5 I0. J0.6
 G01 Y3.5
 G03 X3.5 Y4.1 I-0.6 J0.
 G01 X0.5 Z-0.6 F200
 G03 X-0.1 Y3.5 I0. J-0.6 F100
 G01 Y0.5
 G03 X0.5 Y-0.1 I0.6 J0.
 G01 X3.5
 G03 X4.1 Y0.5 I0. J0.6
 G01 Y3.5
 G03 X3.5 Y4.1 I-0.6 J0.
 G01 X0.5 Z-0.675 F200
 G03 X-0.1 Y3.5 I0. J-0.6 F100
 G01 Y0.5
 G03 X0.5 Y-0.1 I0.6 J0.
 G01 X3.5
 G03 X4.1 Y0.5 I0. J0.6
 G01 Y3.5
 G03 X3.5 Y4.1 I-0.6 J0.
 G01 X0.5 Z-0.75 F200
 G03 X-0.1 Y3.5 I0. J-0.6 F100
 G01 Y0.5
 G03 X0.5 Y-0.1 I0.6 J0.
 G01 X3.5
 G03 X4.1 Y0.5 I0. J0.6
 G01 Y3.5
 G03 X3.5 Y4.1 I-0.6 J0.
 G01 X0.5 Z-0.825 F200
 G03 X-0.1 Y3.5 I0. J-0.6 F100
 G01 Y0.5
 G03 X0.5 Y-0.1 I0.6 J0.
 G01 X3.5
 G03 X4.1 Y0.5 I0. J0.6
 G01 Y3.5
 G03 X3.5 Y4.1 I-0.6 J0.
 G01 X0.5 Z-0.9 F200
 G03 X-0.1 Y3.5 I0. J-0.6 F100
 G01 Y0.5
 G03 X0.5 Y-0.1 I0.6 J0.
 G01 X3.5
 G03 X4.1 Y0.5 I0. J0.6
 G01 Y3.5
 G03 X3.5 Y4.1 I-0.6 J0.
 G01 X0.5 Z-0.975 F200
 G03 X-0.1 Y3.5 I0. J-0.6 F100
 G01 Y0.5
 G03 X0.5 Y-0.1 I0.6 J0.
 G01 X3.5
 G03 X4.1 Y0.5 I0. J0.6
 G01 Y3.5
 G03 X3.5 Y4.1 I-0.6 J0.
 G01 X0.5 Z-1. F200
 G03 X-0.1 Y3.5 I0. J-0.6 F100
 G01 Y0.5
 G03 X0.5 Y-0.1 I0.6 J0.
 G01 X3.5
 G03 X4.1 Y0.5 I0. J0.6
 G01 Y3.5
 G03 X3.5 Y4.1 I-0.6 J0.
 G01 X0.5
 G00 Z0.1
 M6 T20 (0.2 INCH)
 S1000 F100 M04
 G0 G43 H20 Z1
 G0 X3.2 Y2.8
 G0 Z0.1
 G01 Z0. F200
 G01 X3.154 Y3.3 Z-0.089
 G01 X2.805 Z-0.15
 G01 X3.154 F100
 G01 X3.2 Y2.8
 G01 X3.154 Y3.3
 G01 X2.805
 G01 X0.846
 G02 X0.765 Y3.2 I-0.346 J0.2
 G01 X3.235
 G03 X3.4 Y3.113 I0.265 J0.3
 G01 Y3.1
 G01 X0.6
 G01 Y3.
 G01 X3.4
 G01 Y2.9
 G01 X3.
 G01 Y2.8
 G01 X3.4
 G01 Y2.7
 G01 X3.
 G01 Y2.6
 G01 X3.4
 G01 Y2.5
 G01 X3.
 G01 Y2.4
 G01 X3.4
 G01 Y2.3
 G01 X3.
 G01 Y2.2
 G01 X3.4
 G01 Y2.1
 G01 X3.
 G01 Y2.
 G01 X3.4
 G01 Y1.9
 G01 X3.
 G01 Y1.8
 G01 X3.4
 G01 Y1.7
 G01 X3.
 G01 Y1.6
 G01 X3.4
 G01 Y1.5
 G01 X3.
 G01 Y1.4
 G01 X3.4
 G01 Y1.3
 G01 X3.
 G01 Y1.2
 G01 X3.4
 G01 Y1.1
 G01 X3.
 G01 Y1.
 G01 X1.
 G01 Y1.1
 G01 X0.6
 G01 Y1.
 G01 X3.4
 G01 Y0.9
 G01 X0.6
 G01 Y0.887
 G02 X0.765 Y0.8 I-0.1 J-0.387
 G01 X3.235
 G03 X3.154 Y0.7 I0.265 J-0.3
 G01 X0.846
 G00 Z0.1
 G00 X1. Y3.1
 G01 Z0. F200
 G01 X0.6 Y2.9 Z-0.079
 G01 X1. Z-0.149
 G01 Y2.897 Z-0.15
 G01 Y2.9 F100
 G01 X0.6
 G01 X1. Y3.1
 G01 X0.6 Y2.9
 G01 X1.
 G01 Y2.897
 G01 Y2.8
 G01 X0.6
 G01 Y2.7
 G01 X1.
 G01 Y2.6
 G01 X0.6
 G01 Y2.5
 G01 X1.
 G01 Y2.4
 G01 X0.6
 G01 Y2.3
 G01 X1.
 G01 Y2.2
 G01 X0.6
 G01 Y2.1
 G01 X1.
 G01 Y2.
 G01 X0.6
 G01 Y1.9
 G01 X1.
 G01 Y1.8
 G01 X0.6
 G01 Y1.7
 G01 X1.
 G01 Y1.6
 G01 X0.6
 G01 Y1.5
 G01 X1.
 G01 Y1.4
 G01 X0.6
 G01 Y1.3
 G01 X1.
 G01 Y1.2
 G01 X0.6
 G00 Z0.1
 G00 X0.887 Y3.4
 G01 Z0. F200
 G01 X1.738 Z-0.15
 G01 X0.887 F100
 G01 X1.738
 G01 X3.113
 G03 X3.4 Y3.113 I0.387 J0.1
 G01 Y0.887
 G03 X3.113 Y0.6 I0.1 J-0.387
 G01 X0.887
 G03 X0.6 Y0.887 I-0.387 J-0.1
 G01 Y3.113
 G03 X0.887 Y3.4 I-0.1 J0.387
 G00 Z0.1
 G00 X1. Y3.
 G01 Z0. F200
 G01 X1.851 Z-0.15
 G01 X1. F100
 G01 X1.851
 G01 X3.
 G01 Y1.
 G01 X1.
 G01 Y3.
 G00 Z0.1
 G00 X3.2 Y2.8
 G01 Z-0.15 F200
 G01 X3.161 Y3.224 Z-0.225
 G01 X3.2 Y2.8 F100
 G01 X3.161 Y3.224
 G01 X3.154 Y3.3
 G01 X0.846
 G02 X0.765 Y3.2 I-0.346 J0.2
 G01 X3.235
 G03 X3.4 Y3.113 I0.265 J0.3
 G01 Y3.1
 G01 X0.6
 G01 Y3.
 G01 X3.4
 G01 Y2.9
 G01 X3.
 G01 Y2.8
 G01 X3.4
 G01 Y2.7
 G01 X3.
 G01 Y2.6
 G01 X3.4
 G01 Y2.5
 G01 X3.
 G01 Y2.4
 G01 X3.4
 G01 Y2.3
 G01 X3.
 G01 Y2.2
 G01 X3.4
 G01 Y2.1
 G01 X3.
 G01 Y2.
 G01 X3.4
 G01 Y1.9
 G01 X3.
 G01 Y1.8
 G01 X3.4
 G01 Y1.7
 G01 X3.
 G01 Y1.6
 G01 X3.4
 G01 Y1.5
 G01 X3.
 G01 Y1.4
 G01 X3.4
 G01 Y1.3
 G01 X3.
 G01 Y1.2
 G01 X3.4
 G01 Y1.1
 G01 X3.
 G01 Y1.
 G01 X1.
 G01 Y1.1
 G01 X0.6
 G01 Y1.
 G01 X3.4
 G01 Y0.9
 G01 X0.6
 G01 Y0.887
 G02 X0.765 Y0.8 I-0.1 J-0.387
 G01 X3.235
 G03 X3.154 Y0.7 I0.265 J-0.3
 G01 X0.846
 G00 Z0.1
 G00 X1. Y3.1
 G01 Z-0.15 F200
 G01 X0.62 Y2.91 Z-0.225
 G01 X1. Y3.1 F100
 G01 X0.62 Y2.91
 G01 X0.6 Y2.9
 G01 X1.
 G01 Y2.8
 G01 X0.6
 G01 Y2.7
 G01 X1.
 G01 Y2.6
 G01 X0.6
 G01 Y2.5
 G01 X1.
 G01 Y2.4
 G01 X0.6
 G01 Y2.3
 G01 X1.
 G01 Y2.2
 G01 X0.6
 G01 Y2.1
 G01 X1.
 G01 Y2.
 G01 X0.6
 G01 Y1.9
 G01 X1.
 G01 Y1.8
 G01 X0.6
 G01 Y1.7
 G01 X1.
 G01 Y1.6
 G01 X0.6
 G01 Y1.5
 G01 X1.
 G01 Y1.4
 G01 X0.6
 G01 Y1.3
 G01 X1.
 G01 Y1.2
 G01 X0.6
 G00 Z0.1
 G00 X0.887 Y3.4
 G01 Z-0.15 F200
 G01 X1.313 Z-0.225
 G01 X0.887 F100
 G01 X1.313
 G01 X3.113
 G03 X3.4 Y3.113 I0.387 J0.1
 G01 Y0.887
 G03 X3.113 Y0.6 I0.1 J-0.387
 G01 X0.887
 G03 X0.6 Y0.887 I-0.387 J-0.1
 G01 Y3.113
 G03 X0.887 Y3.4 I-0.1 J0.387
 G00 Z0.1
 G00 X1. Y3.
 G01 Z-0.15 F200
 G01 X1.425 Z-0.225
 G01 X1. F100
 G01 X1.425
 G01 X3.
 G01 Y1.
 G01 X1.
 G01 Y3.
 G00 Z0.1
 G00 X3.2 Y2.8
 G01 Z-0.225 F200
 G01 X3.161 Y3.224 Z-0.3
 G01 X3.2 Y2.8 F100
 G01 X3.161 Y3.224
 G01 X3.154 Y3.3
 G01 X0.846
 G02 X0.765 Y3.2 I-0.346 J0.2
 G01 X3.235
 G03 X3.4 Y3.113 I0.265 J0.3
 G01 Y3.1
 G01 X0.6
 G01 Y3.
 G01 X3.4
 G01 Y2.9
 G01 X3.
 G01 Y2.8
 G01 X3.4
 G01 Y2.7
 G01 X3.
 G01 Y2.6
 G01 X3.4
 G01 Y2.5
 G01 X3.
 G01 Y2.4
 G01 X3.4
 G01 Y2.3
 G01 X3.
 G01 Y2.2
 G01 X3.4
 G01 Y2.1
 G01 X3.
 G01 Y2.
 G01 X3.4
 G01 Y1.9
 G01 X3.
 G01 Y1.8
 G01 X3.4
 G01 Y1.7
 G01 X3.
 G01 Y1.6
 G01 X3.4
 G01 Y1.5
 G01 X3.
 G01 Y1.4
 G01 X3.4
 G01 Y1.3
 G01 X3.
 G01 Y1.2
 G01 X3.4
 G01 Y1.1
 G01 X3.
 G01 Y1.
 G01 X1.
 G01 Y1.1
 G01 X0.6
 G01 Y1.
 G01 X3.4
 G01 Y0.9
 G01 X0.6
 G01 Y0.887
 G02 X0.765 Y0.8 I-0.1 J-0.387
 G01 X3.235
 G03 X3.154 Y0.7 I0.265 J-0.3
 G01 X0.846
 G00 Z0.1
 G00 X1. Y3.1
 G01 Z-0.225 F200
 G01 X0.62 Y2.91 Z-0.3
 G01 X1. Y3.1 F100
 G01 X0.62 Y2.91
 G01 X0.6 Y2.9
 G01 X1.
 G01 Y2.8
 G01 X0.6
 G01 Y2.7
 G01 X1.
 G01 Y2.6
 G01 X0.6
 G01 Y2.5
 G01 X1.
 G01 Y2.4
 G01 X0.6
 G01 Y2.3
 G01 X1.
 G01 Y2.2
 G01 X0.6
 G01 Y2.1
 G01 X1.
 G01 Y2.
 G01 X0.6
 G01 Y1.9
 G01 X1.
 G01 Y1.8
 G01 X0.6
 G01 Y1.7
 G01 X1.
 G01 Y1.6
 G01 X0.6
 G01 Y1.5
 G01 X1.
 G01 Y1.4
 G01 X0.6
 G01 Y1.3
 G01 X1.
 G01 Y1.2
 G01 X0.6
 G00 Z0.1
 G00 X0.887 Y3.4
 G01 Z-0.225 F200
 G01 X1.313 Z-0.3
 G01 X0.887 F100
 G01 X1.313
 G01 X3.113
 G03 X3.4 Y3.113 I0.387 J0.1
 G01 Y0.887
 G03 X3.113 Y0.6 I0.1 J-0.387
 G01 X0.887
 G03 X0.6 Y0.887 I-0.387 J-0.1
 G01 Y3.113
 G03 X0.887 Y3.4 I-0.1 J0.387
 G00 Z0.1
 G00 X1. Y3.
 G01 Z-0.225 F200
 G01 X1.425 Z-0.3
 G01 X1. F100
 G01 X1.425
 G01 X3.
 G01 Y1.
 G01 X1.
 G01 Y3.
 G00 Z0.1
 G00 X3.2 Y2.8
 G01 Z-0.3 F200
 G01 X3.161 Y3.224 Z-0.375
 G01 X3.2 Y2.8 F100
 G01 X3.161 Y3.224
 G01 X3.154 Y3.3
 G01 X0.846
 G02 X0.765 Y3.2 I-0.346 J0.2
 G01 X3.235
 G03 X3.4 Y3.113 I0.265 J0.3
 G01 Y3.1
 G01 X0.6
 G01 Y3.
 G01 X3.4
 G01 Y2.9
 G01 X3.
 G01 Y2.8
 G01 X3.4
 G01 Y2.7
 G01 X3.
 G01 Y2.6
 G01 X3.4
 G01 Y2.5
 G01 X3.
 G01 Y2.4
 G01 X3.4
 G01 Y2.3
 G01 X3.
 G01 Y2.2
 G01 X3.4
 G01 Y2.1
 G01 X3.
 G01 Y2.
 G01 X3.4
 G01 Y1.9
 G01 X3.
 G01 Y1.8
 G01 X3.4
 G01 Y1.7
 G01 X3.
 G01 Y1.6
 G01 X3.4
 G01 Y1.5
 G01 X3.
 G01 Y1.4
 G01 X3.4
 G01 Y1.3
 G01 X3.
 G01 Y1.2
 G01 X3.4
 G01 Y1.1
 G01 X3.
 G01 Y1.
 G01 X1.
 G01 Y1.1
 G01 X0.6
 G01 Y1.
 G01 X3.4
 G01 Y0.9
 G01 X0.6
 G01 Y0.887
 G02 X0.765 Y0.8 I-0.1 J-0.387
 G01 X3.235
 G03 X3.154 Y0.7 I0.265 J-0.3
 G01 X0.846
 G00 Z0.1
 G00 X1. Y3.1
 G01 Z-0.3 F200
 G01 X0.62 Y2.91 Z-0.375
 G01 X1. Y3.1 F100
 G01 X0.62 Y2.91
 G01 X0.6 Y2.9
 G01 X1.
 G01 Y2.8
 G01 X0.6
 G01 Y2.7
 G01 X1.
 G01 Y2.6
 G01 X0.6
 G01 Y2.5
 G01 X1.
 G01 Y2.4
 G01 X0.6
 G01 Y2.3
 G01 X1.
 G01 Y2.2
 G01 X0.6
 G01 Y2.1
 G01 X1.
 G01 Y2.
 G01 X0.6
 G01 Y1.9
 G01 X1.
 G01 Y1.8
 G01 X0.6
 G01 Y1.7
 G01 X1.
 G01 Y1.6
 G01 X0.6
 G01 Y1.5
 G01 X1.
 G01 Y1.4
 G01 X0.6
 G01 Y1.3
 G01 X1.
 G01 Y1.2
 G01 X0.6
 G00 Z0.1
 G00 X0.887 Y3.4
 G01 Z-0.3 F200
 G01 X1.313 Z-0.375
 G01 X0.887 F100
 G01 X1.313
 G01 X3.113
 G03 X3.4 Y3.113 I0.387 J0.1
 G01 Y0.887
 G03 X3.113 Y0.6 I0.1 J-0.387
 G01 X0.887
 G03 X0.6 Y0.887 I-0.387 J-0.1
 G01 Y3.113
 G03 X0.887 Y3.4 I-0.1 J0.387
 G00 Z0.1
 G00 X1. Y3.
 G01 Z-0.3 F200
 G01 X1.425 Z-0.375
 G01 X1. F100
 G01 X1.425
 G01 X3.
 G01 Y1.
 G01 X1.
 G01 Y3.
 G00 Z0.1
 G00 X3.2 Y2.8
 G01 Z-0.375 F200
 G01 X3.161 Y3.224 Z-0.45
 G01 X3.2 Y2.8 F100
 G01 X3.161 Y3.224
 G01 X3.154 Y3.3
 G01 X0.846
 G02 X0.765 Y3.2 I-0.346 J0.2
 G01 X3.235
 G03 X3.4 Y3.113 I0.265 J0.3
 G01 Y3.1
 G01 X0.6
 G01 Y3.
 G01 X3.4
 G01 Y2.9
 G01 X3.
 G01 Y2.8
 G01 X3.4
 G01 Y2.7
 G01 X3.
 G01 Y2.6
 G01 X3.4
 G01 Y2.5
 G01 X3.
 G01 Y2.4
 G01 X3.4
 G01 Y2.3
 G01 X3.
 G01 Y2.2
 G01 X3.4
 G01 Y2.1
 G01 X3.
 G01 Y2.
 G01 X3.4
 G01 Y1.9
 G01 X3.
 G01 Y1.8
 G01 X3.4
 G01 Y1.7
 G01 X3.
 G01 Y1.6
 G01 X3.4
 G01 Y1.5
 G01 X3.
 G01 Y1.4
 G01 X3.4
 G01 Y1.3
 G01 X3.
 G01 Y1.2
 G01 X3.4
 G01 Y1.1
 G01 X3.
 G01 Y1.
 G01 X1.
 G01 Y1.1
 G01 X0.6
 G01 Y1.
 G01 X3.4
 G01 Y0.9
 G01 X0.6
 G01 Y0.887
 G02 X0.765 Y0.8 I-0.1 J-0.387
 G01 X3.235
 G03 X3.154 Y0.7 I0.265 J-0.3
 G01 X0.846
 G00 Z0.1
 G00 X1. Y3.1
 G01 Z-0.375 F200
 G01 X0.62 Y2.91 Z-0.45
 G01 X1. Y3.1 F100
 G01 X0.62 Y2.91
 G01 X0.6 Y2.9
 G01 X1.
 G01 Y2.8
 G01 X0.6
 G01 Y2.7
 G01 X1.
 G01 Y2.6
 G01 X0.6
 G01 Y2.5
 G01 X1.
 G01 Y2.4
 G01 X0.6
 G01 Y2.3
 G01 X1.
 G01 Y2.2
 G01 X0.6
 G01 Y2.1
 G01 X1.
 G01 Y2.
 G01 X0.6
 G01 Y1.9
 G01 X1.
 G01 Y1.8
 G01 X0.6
 G01 Y1.7
 G01 X1.
 G01 Y1.6
 G01 X0.6
 G01 Y1.5
 G01 X1.
 G01 Y1.4
 G01 X0.6
 G01 Y1.3
 G01 X1.
 G01 Y1.2
 G01 X0.6
 G00 Z0.1
 G00 X0.887 Y3.4
 G01 Z-0.375 F200
 G01 X1.313 Z-0.45
 G01 X0.887 F100
 G01 X1.313
 G01 X3.113
 G03 X3.4 Y3.113 I0.387 J0.1
 G01 Y0.887
 G03 X3.113 Y0.6 I0.1 J-0.387
 G01 X0.887
 G03 X0.6 Y0.887 I-0.387 J-0.1
 G01 Y3.113
 G03 X0.887 Y3.4 I-0.1 J0.387
 G00 Z0.1
 G00 X1. Y3.
 G01 Z-0.375 F200
 G01 X1.425 Z-0.45
 G01 X1. F100
 G01 X1.425
 G01 X3.
 G01 Y1.
 G01 X1.
 G01 Y3.
 G00 Z0.1
 G00 X3.2 Y2.8
 G01 Z-0.45 F200
 G01 X3.161 Y3.224 Z-0.525
 G01 X3.2 Y2.8 F100
 G01 X3.161 Y3.224
 G01 X3.154 Y3.3
 G01 X0.846
 G02 X0.765 Y3.2 I-0.346 J0.2
 G01 X3.235
 G03 X3.4 Y3.113 I0.265 J0.3
 G01 Y3.1
 G01 X0.6
 G01 Y3.
 G01 X3.4
 G01 Y2.9
 G01 X3.
 G01 Y2.8
 G01 X3.4
 G01 Y2.7
 G01 X3.
 G01 Y2.6
 G01 X3.4
 G01 Y2.5
 G01 X3.
 G01 Y2.4
 G01 X3.4
 G01 Y2.3
 G01 X3.
 G01 Y2.2
 G01 X3.4
 G01 Y2.1
 G01 X3.
 G01 Y2.
 G01 X3.4
 G01 Y1.9
 G01 X3.
 G01 Y1.8
 G01 X3.4
 G01 Y1.7
 G01 X3.
 G01 Y1.6
 G01 X3.4
 G01 Y1.5
 G01 X3.
 G01 Y1.4
 G01 X3.4
 G01 Y1.3
 G01 X3.
 G01 Y1.2
 G01 X3.4
 G01 Y1.1
 G01 X3.
 G01 Y1.
 G01 X1.
 G01 Y1.1
 G01 X0.6
 G01 Y1.
 G01 X3.4
 G01 Y0.9
 G01 X0.6
 G01 Y0.887
 G02 X0.765 Y0.8 I-0.1 J-0.387
 G01 X3.235
 G03 X3.154 Y0.7 I0.265 J-0.3
 G01 X0.846
 G00 Z0.1
 G00 X1. Y3.1
 G01 Z-0.45 F200
 G01 X0.62 Y2.91 Z-0.525
 G01 X1. Y3.1 F100
 G01 X0.62 Y2.91
 G01 X0.6 Y2.9
 G01 X1.
 G01 Y2.8
 G01 X0.6
 G01 Y2.7
 G01 X1.
 G01 Y2.6
 G01 X0.6
 G01 Y2.5
 G01 X1.
 G01 Y2.4
 G01 X0.6
 G01 Y2.3
 G01 X1.
 G01 Y2.2
 G01 X0.6
 G01 Y2.1
 G01 X1.
 G01 Y2.
 G01 X0.6
 G01 Y1.9
 G01 X1.
 G01 Y1.8
 G01 X0.6
 G01 Y1.7
 G01 X1.
 G01 Y1.6
 G01 X0.6
 G01 Y1.5
 G01 X1.
 G01 Y1.4
 G01 X0.6
 G01 Y1.3
 G01 X1.
 G01 Y1.2
 G01 X0.6
 G00 Z0.1
 G00 X0.887 Y3.4
 G01 Z-0.45 F200
 G01 X1.313 Z-0.525
 G01 X0.887 F100
 G01 X1.313
 G01 X3.113
 G03 X3.4 Y3.113 I0.387 J0.1
 G01 Y0.887
 G03 X3.113 Y0.6 I0.1 J-0.387
 G01 X0.887
 G03 X0.6 Y0.887 I-0.387 J-0.1
 G01 Y3.113
 G03 X0.887 Y3.4 I-0.1 J0.387
 G00 Z0.1
 G00 X1. Y3.
 G01 Z-0.45 F200
 G01 X1.425 Z-0.525
 G01 X1. F100
 G01 X1.425
 G01 X3.
 G01 Y1.
 G01 X1.
 G01 Y3.
 G00 Z0.1
 G00 X3.2 Y2.8
 G01 Z-0.525 F200
 G01 X3.161 Y3.224 Z-0.6
 G01 X3.2 Y2.8 F100
 G01 X3.161 Y3.224
 G01 X3.154 Y3.3
 G01 X0.846
 G02 X0.765 Y3.2 I-0.346 J0.2
 G01 X3.235
 G03 X3.4 Y3.113 I0.265 J0.3
 G01 Y3.1
 G01 X0.6
 G01 Y3.
 G01 X3.4
 G01 Y2.9
 G01 X3.
 G01 Y2.8
 G01 X3.4
 G01 Y2.7
 G01 X3.
 G01 Y2.6
 G01 X3.4
 G01 Y2.5
 G01 X3.
 G01 Y2.4
 G01 X3.4
 G01 Y2.3
 G01 X3.
 G01 Y2.2
 G01 X3.4
 G01 Y2.1
 G01 X3.
 G01 Y2.
 G01 X3.4
 G01 Y1.9
 G01 X3.
 G01 Y1.8
 G01 X3.4
 G01 Y1.7
 G01 X3.
 G01 Y1.6
 G01 X3.4
 G01 Y1.5
 G01 X3.
 G01 Y1.4
 G01 X3.4
 G01 Y1.3
 G01 X3.
 G01 Y1.2
 G01 X3.4
 G01 Y1.1
 G01 X3.
 G01 Y1.
 G01 X1.
 G01 Y1.1
 G01 X0.6
 G01 Y1.
 G01 X3.4
 G01 Y0.9
 G01 X0.6
 G01 Y0.887
 G02 X0.765 Y0.8 I-0.1 J-0.387
 G01 X3.235
 G03 X3.154 Y0.7 I0.265 J-0.3
 G01 X0.846
 G00 Z0.1
 G00 X1. Y3.1
 G01 Z-0.525 F200
 G01 X0.62 Y2.91 Z-0.6
 G01 X1. Y3.1 F100
 G01 X0.62 Y2.91
 G01 X0.6 Y2.9
 G01 X1.
 G01 Y2.8
 G01 X0.6
 G01 Y2.7
 G01 X1.
 G01 Y2.6
 G01 X0.6
 G01 Y2.5
 G01 X1.
 G01 Y2.4
 G01 X0.6
 G01 Y2.3
 G01 X1.
 G01 Y2.2
 G01 X0.6
 G01 Y2.1
 G01 X1.
 G01 Y2.
 G01 X0.6
 G01 Y1.9
 G01 X1.
 G01 Y1.8
 G01 X0.6
 G01 Y1.7
 G01 X1.
 G01 Y1.6
 G01 X0.6
 G01 Y1.5
 G01 X1.
 G01 Y1.4
 G01 X0.6
 G01 Y1.3
 G01 X1.
 G01 Y1.2
 G01 X0.6
 G00 Z0.1
 G00 X0.887 Y3.4
 G01 Z-0.525 F200
 G01 X1.313 Z-0.6
 G01 X0.887 F100
 G01 X1.313
 G01 X3.113
 G03 X3.4 Y3.113 I0.387 J0.1
 G01 Y0.887
 G03 X3.113 Y0.6 I0.1 J-0.387
 G01 X0.887
 G03 X0.6 Y0.887 I-0.387 J-0.1
 G01 Y3.113
 G03 X0.887 Y3.4 I-0.1 J0.387
 G00 Z0.1
 G00 X1. Y3.
 G01 Z-0.525 F200
 G01 X1.425 Z-0.6
 G01 X1. F100
 G01 X1.425
 G01 X3.
 G01 Y1.
 G01 X1.
 G01 Y3.
 G00 Z0.1
 G00 X3.2 Y2.8
 G01 Z-0.6 F200
 G01 X3.161 Y3.224 Z-0.675
 G01 X3.2 Y2.8 F100
 G01 X3.161 Y3.224
 G01 X3.154 Y3.3
 G01 X0.846
 G02 X0.765 Y3.2 I-0.346 J0.2
 G01 X3.235
 G03 X3.4 Y3.113 I0.265 J0.3
 G01 Y3.1
 G01 X0.6
 G01 Y3.
 G01 X3.4
 G01 Y2.9
 G01 X3.
 G01 Y2.8
 G01 X3.4
 G01 Y2.7
 G01 X3.
 G01 Y2.6
 G01 X3.4
 G01 Y2.5
 G01 X3.
 G01 Y2.4
 G01 X3.4
 G01 Y2.3
 G01 X3.
 G01 Y2.2
 G01 X3.4
 G01 Y2.1
 G01 X3.
 G01 Y2.
 G01 X3.4
 G01 Y1.9
 G01 X3.
 G01 Y1.8
 G01 X3.4
 G01 Y1.7
 G01 X3.
 G01 Y1.6
 G01 X3.4
 G01 Y1.5
 G01 X3.
 G01 Y1.4
 G01 X3.4
 G01 Y1.3
 G01 X3.
 G01 Y1.2
 G01 X3.4
 G01 Y1.1
 G01 X3.
 G01 Y1.
 G01 X1.
 G01 Y1.1
 G01 X0.6
 G01 Y1.
 G01 X3.4
 G01 Y0.9
 G01 X0.6
 G01 Y0.887
 G02 X0.765 Y0.8 I-0.1 J-0.387
 G01 X3.235
 G03 X3.154 Y0.7 I0.265 J-0.3
 G01 X0.846
 G00 Z0.1
 G00 X1. Y3.1
 G01 Z-0.6 F200
 G01 X0.62 Y2.91 Z-0.675
 G01 X1. Y3.1 F100
 G01 X0.62 Y2.91
 G01 X0.6 Y2.9
 G01 X1.
 G01 Y2.8
 G01 X0.6
 G01 Y2.7
 G01 X1.
 G01 Y2.6
 G01 X0.6
 G01 Y2.5
 G01 X1.
 G01 Y2.4
 G01 X0.6
 G01 Y2.3
 G01 X1.
 G01 Y2.2
 G01 X0.6
 G01 Y2.1
 G01 X1.
 G01 Y2.
 G01 X0.6
 G01 Y1.9
 G01 X1.
 G01 Y1.8
 G01 X0.6
 G01 Y1.7
 G01 X1.
 G01 Y1.6
 G01 X0.6
 G01 Y1.5
 G01 X1.
 G01 Y1.4
 G01 X0.6
 G01 Y1.3
 G01 X1.
 G01 Y1.2
 G01 X0.6
 G00 Z0.1
 G00 X0.887 Y3.4
 G01 Z-0.6 F200
 G01 X1.313 Z-0.675
 G01 X0.887 F100
 G01 X1.313
 G01 X3.113
 G03 X3.4 Y3.113 I0.387 J0.1
 G01 Y0.887
 G03 X3.113 Y0.6 I0.1 J-0.387
 G01 X0.887
 G03 X0.6 Y0.887 I-0.387 J-0.1
 G01 Y3.113
 G03 X0.887 Y3.4 I-0.1 J0.387
 G00 Z0.1
 G00 X1. Y3.
 G01 Z-0.6 F200
 G01 X1.425 Z-0.675
 G01 X1. F100
 G01 X1.425
 G01 X3.
 G01 Y1.
 G01 X1.
 G01 Y3.
 G00 Z0.1
 G00 X3.2 Y2.8
 G01 Z-0.675 F200
 G01 X3.161 Y3.224 Z-0.75
 G01 X3.2 Y2.8 F100
 G01 X3.161 Y3.224
 G01 X3.154 Y3.3
 G01 X0.846
 G02 X0.765 Y3.2 I-0.346 J0.2
 G01 X3.235
 G03 X3.4 Y3.113 I0.265 J0.3
 G01 Y3.1
 G01 X0.6
 G01 Y3.
 G01 X3.4
 G01 Y2.9
 G01 X3.
 G01 Y2.8
 G01 X3.4
 G01 Y2.7
 G01 X3.
 G01 Y2.6
 G01 X3.4
 G01 Y2.5
 G01 X3.
 G01 Y2.4
 G01 X3.4
 G01 Y2.3
 G01 X3.
 G01 Y2.2
 G01 X3.4
 G01 Y2.1
 G01 X3.
 G01 Y2.
 G01 X3.4
 G01 Y1.9
 G01 X3.
 G01 Y1.8
 G01 X3.4
 G01 Y1.7
 G01 X3.
 G01 Y1.6
 G01 X3.4
 G01 Y1.5
 G01 X3.
 G01 Y1.4
 G01 X3.4
 G01 Y1.3
 G01 X3.
 G01 Y1.2
 G01 X3.4
 G01 Y1.1
 G01 X3.
 G01 Y1.
 G01 X1.
 G01 Y1.1
 G01 X0.6
 G01 Y1.
 G01 X3.4
 G01 Y0.9
 G01 X0.6
 G01 Y0.887
 G02 X0.765 Y0.8 I-0.1 J-0.387
 G01 X3.235
 G03 X3.154 Y0.7 I0.265 J-0.3
 G01 X0.846
 G00 Z0.1
 G00 X1. Y3.1
 G01 Z-0.675 F200
 G01 X0.62 Y2.91 Z-0.75
 G01 X1. Y3.1 F100
 G01 X0.62 Y2.91
 G01 X0.6 Y2.9
 G01 X1.
 G01 Y2.8
 G01 X0.6
 G01 Y2.7
 G01 X1.
 G01 Y2.6
 G01 X0.6
 G01 Y2.5
 G01 X1.
 G01 Y2.4
 G01 X0.6
 G01 Y2.3
 G01 X1.
 G01 Y2.2
 G01 X0.6
 G01 Y2.1
 G01 X1.
 G01 Y2.
 G01 X0.6
 G01 Y1.9
 G01 X1.
 G01 Y1.8
 G01 X0.6
 G01 Y1.7
 G01 X1.
 G01 Y1.6
 G01 X0.6
 G01 Y1.5
 G01 X1.
 G01 Y1.4
 G01 X0.6
 G01 Y1.3
 G01 X1.
 G01 Y1.2
 G01 X0.6
 G00 Z0.1
 G00 X0.887 Y3.4
 G01 Z-0.675 F200
 G01 X1.313 Z-0.75
 G01 X0.887 F100
 G01 X1.313
 G01 X3.113
 G03 X3.4 Y3.113 I0.387 J0.1
 G01 Y0.887
 G03 X3.113 Y0.6 I0.1 J-0.387
 G01 X0.887
 G03 X0.6 Y0.887 I-0.387 J-0.1
 G01 Y3.113
 G03 X0.887 Y3.4 I-0.1 J0.387
 G00 Z0.1
 G00 X1. Y3.
 G01 Z-0.675 F200
 G01 X1.425 Z-0.75
 G01 X1. F100
 G01 X1.425
 G01 X3.
 G01 Y1.
 G01 X1.
 G01 Y3.
 G00 Z0.1
 G00 X3.2 Y2.8
 G01 Z-0.75 F200
 G01 X3.174 Y3.082 Z-0.8
 G01 X3.2 Y2.8 F100
 G01 X3.174 Y3.082
 G01 X3.154 Y3.3
 G01 X0.846
 G02 X0.765 Y3.2 I-0.346 J0.2
 G01 X3.235
 G03 X3.4 Y3.113 I0.265 J0.3
 G01 Y3.1
 G01 X0.6
 G01 Y3.
 G01 X3.4
 G01 Y2.9
 G01 X3.
 G01 Y2.8
 G01 X3.4
 G01 Y2.7
 G01 X3.
 G01 Y2.6
 G01 X3.4
 G01 Y2.5
 G01 X3.
 G01 Y2.4
 G01 X3.4
 G01 Y2.3
 G01 X3.
 G01 Y2.2
 G01 X3.4
 G01 Y2.1
 G01 X3.
 G01 Y2.
 G01 X3.4
 G01 Y1.9
 G01 X3.
 G01 Y1.8
 G01 X3.4
 G01 Y1.7
 G01 X3.
 G01 Y1.6
 G01 X3.4
 G01 Y1.5
 G01 X3.
 G01 Y1.4
 G01 X3.4
 G01 Y1.3
 G01 X3.
 G01 Y1.2
 G01 X3.4
 G01 Y1.1
 G01 X3.
 G01 Y1.
 G01 X1.
 G01 Y1.1
 G01 X0.6
 G01 Y1.
 G01 X3.4
 G01 Y0.9
 G01 X0.6
 G01 Y0.887
 G02 X0.765 Y0.8 I-0.1 J-0.387
 G01 X3.235
 G03 X3.154 Y0.7 I0.265 J-0.3
 G01 X0.846
 G00 Z0.1
 G00 X1. Y3.1
 G01 Z-0.75 F200
 G01 X0.746 Y2.973 Z-0.8
 G01 X1. Y3.1 F100
 G01 X0.746 Y2.973
 G01 X0.6 Y2.9
 G01 X1.
 G01 Y2.8
 G01 X0.6
 G01 Y2.7
 G01 X1.
 G01 Y2.6
 G01 X0.6
 G01 Y2.5
 G01 X1.
 G01 Y2.4
 G01 X0.6
 G01 Y2.3
 G01 X1.
 G01 Y2.2
 G01 X0.6
 G01 Y2.1
 G01 X1.
 G01 Y2.
 G01 X0.6
 G01 Y1.9
 G01 X1.
 G01 Y1.8
 G01 X0.6
 G01 Y1.7
 G01 X1.
 G01 Y1.6
 G01 X0.6
 G01 Y1.5
 G01 X1.
 G01 Y1.4
 G01 X0.6
 G01 Y1.3
 G01 X1.
 G01 Y1.2
 G01 X0.6
 G00 Z0.1
 G00 X0.887 Y3.4
 G01 Z-0.75 F200
 G01 X1.171 Z-0.8
 G01 X0.887 F100
 G01 X1.171
 G01 X3.113
 G03 X3.4 Y3.113 I0.387 J0.1
 G01 Y0.887
 G03 X3.113 Y0.6 I0.1 J-0.387
 G01 X0.887
 G03 X0.6 Y0.887 I-0.387 J-0.1
 G01 Y3.113
 G03 X0.887 Y3.4 I-0.1 J0.387
 G00 Z0.1
 G00 X1. Y3.
 G01 Z-0.75 F200
 G01 X1.284 Z-0.8
 G01 X1. F100
 G01 X1.284
 G01 X3.
 G01 Y1.
 G01 X1.
 G01 Y3.
 G00 Z0.1
 G00 X0.5 Y3.5
 G01 Z0.01 F200
 G02 X0.55 Z-0.15 I0.025 J0.
 G02 Z-0.225 I-0.05 J0.
 G02 Z-0.3 I-0.05 J0.
 G02 Z-0.375 I-0.05 J0.
 G02 Z-0.45 I-0.05 J0.
 G02 Z-0.525 I-0.05 J0.
 G02 Z-0.6 I-0.05 J0.
 G02 Z-0.675 I-0.05 J0.
 G02 Z-0.75 I-0.05 J0.
 G02 Z-0.825 I-0.05 J0.
 G02 Z-0.9 I-0.05 J0.
 G02 Z-0.975 I-0.05 J0.
 G02 Z-1.05 I-0.05 J0.
 G02 Z-1.125 I-0.05 J0.
 G02 Z-1.2 I-0.05 J0.
 G02 Z-1.275 I-0.05 J0.
 G02 Z-1.35 I-0.05 J0.
 G02 Z-1.425 I-0.05 J0.
 G02 Z-1.5 I-0.05 J0.
 G02 I-0.05 J0. F100
 G02 X0.5 I-0.025 J0.
 G00 Z0.1
 G00 X3.5
 G01 Z0.01 F200
 G03 X3.55 Z-0.15 I0.025 J0.
 G03 Z-0.225 I-0.05 J0.
 G03 Z-0.3 I-0.05 J0.
 G03 Z-0.375 I-0.05 J0.
 G03 Z-0.45 I-0.05 J0.
 G03 Z-0.525 I-0.05 J0.
 G03 Z-0.6 I-0.05 J0.
 G03 Z-0.675 I-0.05 J0.
 G03 Z-0.75 I-0.05 J0.
 G03 Z-0.825 I-0.05 J0.
 G03 Z-0.9 I-0.05 J0.
 G03 Z-0.975 I-0.05 J0.
 G03 Z-1.05 I-0.05 J0.
 G03 Z-1.125 I-0.05 J0.
 G03 Z-1.2 I-0.05 J0.
 G03 Z-1.275 I-0.05 J0.
 G03 Z-1.35 I-0.05 J0.
 G03 Z-1.425 I-0.05 J0.
 G03 Z-1.5 I-0.05 J0.
 G03 I-0.05 J0. F100
 G03 X3.5 I-0.025 J0.
 G00 Z0.1
 G00 Y0.5
 G01 Z0.01 F200
 G03 X3.55 Z-0.15 I0.025 J0.
 G03 Z-0.225 I-0.05 J0.
 G03 Z-0.3 I-0.05 J0.
 G03 Z-0.375 I-0.05 J0.
 G03 Z-0.45 I-0.05 J0.
 G03 Z-0.525 I-0.05 J0.
 G03 Z-0.6 I-0.05 J0.
 G03 Z-0.675 I-0.05 J0.
 G03 Z-0.75 I-0.05 J0.
 G03 Z-0.825 I-0.05 J0.
 G03 Z-0.9 I-0.05 J0.
 G03 Z-0.975 I-0.05 J0.
 G03 Z-1.05 I-0.05 J0.
 G03 Z-1.125 I-0.05 J0.
 G03 Z-1.2 I-0.05 J0.
 G03 Z-1.275 I-0.05 J0.
 G03 Z-1.35 I-0.05 J0.
 G03 Z-1.425 I-0.05 J0.
 G03 Z-1.5 I-0.05 J0.
 G03 I-0.05 J0. F100
 G03 X3.5 I-0.025 J0.
 G00 Z0.1
 G00 X0.5
 G01 Z0.01 F200
 G02 X0.55 Z-0.15 I0.025 J0.
 G02 Z-0.225 I-0.05 J0.
 G02 Z-0.3 I-0.05 J0.
 G02 Z-0.375 I-0.05 J0.
 G02 Z-0.45 I-0.05 J0.
 G02 Z-0.525 I-0.05 J0.
 G02 Z-0.6 I-0.05 J0.
 G02 Z-0.675 I-0.05 J0.
 G02 Z-0.75 I-0.05 J0.
 G02 Z-0.825 I-0.05 J0.
 G02 Z-0.9 I-0.05 J0.
 G02 Z-0.975 I-0.05 J0.
 G02 Z-1.05 I-0.05 J0.
 G02 Z-1.125 I-0.05 J0.
 G02 Z-1.2 I-0.05 J0.
 G02 Z-1.275 I-0.05 J0.
 G02 Z-1.35 I-0.05 J0.
 G02 Z-1.425 I-0.05 J0.
 G02 Z-1.5 I-0.05 J0.
 G02 I-0.05 J0. F100
 G02 X0.5 I-0.025 J0.
 G00 Z1.0
 M30
%
