($Message("IMPORTANT! Remember to load the corresponding machine settings file for the example. Use the [Files -> Load machine settings] to open machine settings file.") )
($SetPartSize(200, 150, 20, 1) )
($SetRadiusPrg( 0 ) )
(Program made by TextMilling)
G00 X0.000 Y0.000 Z2.000
G00 X16.262 Y137.500 S2000.000 F300.000 T6
G01 Z-15.000 F200.000
G01 X27.426 Y137.500 F300.000
G01 X27.426 Y93.666
G01 X39.682 Y93.666
G01 X39.682 Y137.500
G01 X50.907 Y137.500
G01 X50.907 Y12.500
G01 X39.682 Y12.500
G01 X39.682 Y63.045
G01 X27.426 Y63.045
G01 X27.426 Y12.500
G01 X16.262 Y12.500
G01 X16.262 Y137.500
G00 Z2.000 F200.000
G00 X89.766 Y49.203 F300.000
G01 Z-15.000 F200.000
G01 X69.561 Y49.203 F300.000
G01 X69.804 Y44.169
G01 X70.290 Y39.975
G01 X70.882 Y36.668
G01 X71.988 Y33.473
G01 X73.263 Y31.376
G01 X74.720 Y30.747
G01 X75.690 Y30.956
G01 X76.660 Y32.005
G01 X77.561 Y33.342
G01 X78.117 Y34.732
G01 X78.723 Y36.619
G01 X79.330 Y39.136
G01 X89.220 Y35.990
G01 X87.582 Y27.810
G01 X85.762 Y21.099
G01 X83.730 Y16.351
G01 X81.272 Y13.129
G01 X78.177 Y11.032
G01 X74.505 Y10.403
G01 X71.260 Y11.032
G01 X68.530 Y12.710
G01 X66.293 Y15.484
G01 X64.404 Y19.631
G01 X62.766 Y24.874
G01 X61.334 Y31.625
G01 X60.217 Y39.346
G01 X59.611 Y48.154
G01 X59.368 Y57.632
G01 X59.793 Y70.805
G01 X61.128 Y82.341
G01 X63.310 Y92.049
G01 X66.285 Y99.329
G01 X69.925 Y103.733
G01 X74.196 Y105.201
G01 X77.692 Y104.572
G01 X80.665 Y102.685
G01 X83.094 Y99.311
G01 X85.094 Y94.715
G01 X86.732 Y89.052
G01 X88.061 Y82.237
G01 X89.038 Y73.951
G01 X89.584 Y64.304
G01 X89.766 Y53.129
G01 X89.766 Y49.203
G00 Z2.000 F200.000
G00 X79.573 Y65.772 F300.000
G01 Z-15.000 F200.000
G01 X79.269 Y71.854 F300.000
G01 X78.723 Y76.678
G01 X77.991 Y80.271
G01 X77.024 Y82.760
G01 X75.932 Y84.228
G01 X74.616 Y84.648
G01 X73.141 Y84.018
G01 X71.806 Y81.711
G01 X70.757 Y78.041
G01 X70.229 Y74.790
G01 X69.804 Y70.805
G01 X69.586 Y65.772
G01 X79.573 Y65.772
G00 Z2.000 F200.000
G00 X97.742 Y137.500 F300.000
G01 Z-15.000 F200.000
G01 X107.814 Y137.500 F300.000
G01 X107.814 Y12.500
G01 X97.742 Y12.500
G01 X97.742 Y137.500
G00 Z2.000 F200.000
G00 X117.549 Y137.500 F300.000
G01 Z-15.000 F200.000
G01 X127.621 Y137.500 F300.000
G01 X127.621 Y12.500
G01 X117.549 Y12.500
G01 X117.549 Y137.500
G00 Z2.000 F200.000
G00 X135.778 Y57.546 F300.000
G01 Z-15.000 F200.000
G01 X136.203 Y70.596 F300.000
G01 X137.598 Y81.921
G01 X139.823 Y91.751
G01 X142.816 Y99.119
G01 X146.457 Y103.733
G01 X150.751 Y105.201
G01 X155.558 Y103.523
G01 X159.563 Y98.280
G01 X162.641 Y89.403
G01 X164.417 Y80.243
G01 X165.509 Y69.757
G01 X165.873 Y58.058
G01 X165.448 Y45.008
G01 X164.113 Y33.473
G01 X161.864 Y23.768
G01 X158.834 Y16.275
G01 X155.133 Y11.871
G01 X150.776 Y10.403
G01 X146.821 Y11.661
G01 X143.423 Y15.436
G01 X140.564 Y21.505
G01 X137.902 Y31.586
G01 X136.324 Y43.540
G01 X135.778 Y57.546
G00 Z2.000 F200.000
G00 X145.850 Y57.635 F300.000
G01 Z-15.000 F200.000
G01 X146.032 Y50.252 F300.000
G01 X146.457 Y44.169
G01 X147.270 Y39.700
G01 X148.277 Y36.409
G01 X149.491 Y34.522
G01 X150.838 Y33.893
G01 X152.221 Y34.522
G01 X153.374 Y36.409
G01 X154.406 Y39.614
G01 X155.194 Y44.169
G01 X155.619 Y50.252
G01 X155.801 Y57.976
G01 X155.619 Y65.143
G01 X155.194 Y71.015
G01 X154.393 Y75.528
G01 X153.374 Y78.775
G01 X152.221 Y80.663
G01 X150.912 Y81.292
G01 X149.551 Y80.663
G01 X148.338 Y78.775
G01 X147.282 Y75.442
G01 X146.457 Y70.805
G01 X146.032 Y64.933
G01 X145.850 Y57.635
G00 Z2.000 F200.000
G00 X173.787 Y137.500 F300.000
G01 Z-15.000 F200.000
G01 X184.527 Y137.500 F300.000
G01 X184.527 Y108.993
G01 X182.436 Y51.720
G01 X175.804 Y51.720
G01 X173.787 Y108.993
G01 X173.787 Y137.500
G00 Z2.000 F200.000
G00 X174.151 Y43.121 F300.000
G01 Z-15.000 F200.000
G01 X184.163 Y43.121 F300.000
G01 X184.163 Y12.500
G01 X174.151 Y12.500
G01 X174.151 Y43.121
G00 Z2.000 F200.000
G00 X0.000 Y0.000 Z2.000

($SetPartSize(140, 130, 50, 1) )
%123
N10 G00 Z2 M09
N20 G00 X-5 Y127 T1
N30 G01 Z-45 F100 S2500 M03 M08
N40 G01 X25.284 F61
N50 G01 X19.57 Y119
N60 G01 X-5
N70 G01 Y111
N80 G01 X13.855
N90 G01 X8.141 Y103
N100 G01 X-5
N110 G01 Y95
N120 G01 X2.427
N130 G01 X0 Y91.602
N140 G01 Y87
N150 G01 X-5
N160 G01 Y79
N170 G01 X0
N180 G01 Y71
N190 G01 X-5
N200 G01 Y63
N210 G01 X0
N220 G01 Y55
N230 G01 X-5
N240 G01 Y47
N250 G01 X0
N260 G01 Y39
N270 G01 X-5
N280 G01 Y31
N290 G01 X3.417
N300 G01 X6.846 Y23
N310 G01 X-5
N320 G01 Y15
N330 G01 X10.274
N340 G01 X13.703 Y7
N350 G01 X-5
N360 G01 Y-1
N370 G01 X145
N380 G01 Y7
N390 G01 X95.537
N400 G00 Z2 M09
N410 G00 X145 Y127
N420 G01 Z-45 F100 M08
N430 G01 X44.128 F61
N440 G01 Y119
N450 G01 X55
N460 G01 Y111
N470 G01 X35.101
N480 G00 Z2 M09
N490 G00 X145 Y119
N500 G01 Z-45 F100 M08
N510 G01 X111.841 F61
N520 G02 X112.5 Y115.429 I-9.341 J-3.571
N530 G01 Y111
N540 G01 X145
N550 G01 Y103
N560 G01 X112.5
N570 G01 Y95
N580 G01 X145
N590 G01 Y87
N600 G01 X112.5
N610 G01 Y79.187
N620 G02 X113.307 Y79 I-7.5 J-34.187
N630 G01 X145
N640 G01 Y71
N650 G01 X128.431
N660 G02 X135.017 Y63 I-23.431 J-26
N670 G01 X145
N680 G01 Y55
N690 G01 X138.541
N700 G02 X139.943 Y47 I-33.541 J-10
N710 G01 X145
N720 G01 Y39
N730 G01 X139.482
N740 G02 X137.078 Y31 I-34.482 J6
N750 G01 X145
N760 G01 Y23
N770 G01 X132.221
N780 G02 X123.028 Y15 I-27.221 J22
N790 G01 X145
N800 G00 Z2 M09
N810 G00 X91.929 Y119
N820 G01 Z-45 F100 M08
N830 G01 X75 F61
N840 G01 Y111
N850 G01 X83.929
N860 G00 Z2 M09
N870 G00 X145 Y-5
N880 G01 Z-45 F100 M08
N890 G01 X-5 F61
N900 G01 Y135
N910 G01 X145
N920 G01 Y-5
N930 G00 Z2 M09
N940 G00 X89.663 Y0
N950 G01 Z-45 F100 M08
N960 G01 X98.556 Y10.598 F61
N970 G03 X112.5 Y79.187 I6.444 J34.402
N980 G01 Y115.429
N990 G03 X95.429 Y122.5 I-10 J0
N1000 G01 X82.929 Y110
N1010 G01 X75
N1020 G01 Y125
N1030 G01 X55
N1040 G01 Y110
N1050 G01 X45
N1060 G02 X44.128 Y112.821 I-5 J0
N1070 G01 Y130
N1080 G01 X27.427
N1090 G01 X0 Y91.602
N1100 G01 Y38.974
N1110 G01 X16.703 Y0
N1120 G01 X89.663
N1130 G00 Z2 M09
N1140 G00 X22.787 Y102.858 T4
N1150 G01 Z-20 F100 M08
N1160 G01 X24.573 F61
N1170 G03 X26.743 Y99.358 I15.427 J7.142
N1180 G01 X20.287
N1190 G01 X17.787 Y95.858
N1200 G01 X30.566
N1210 G03 X49.434 I9.434 J14.142
N1220 G01 X100.5
N1230 G01 Y92.358
N1240 G01 X15.287
N1250 G01 X12.787 Y88.858
N1260 G01 X100.5
N1270 G01 Y85.358
N1280 G01 X66.059
N1290 G02 X69.847 Y81.858 I-6.059 J-10.358
N1300 G01 X100.5
N1310 G01 Y78.358
N1320 G01 X71.521
N1330 G02 X72 Y75 I-11.521 J-3.358
N1340 G02 X71.999 Y74.858 I-12 J0
N1350 G01 X93.489
N1360 G03 X86.854 Y71.358 I11.511 J-29.858
N1370 G01 X71.434
N1380 G02 X69.643 Y67.858 I-11.434 J3.642
N1390 G01 X82.605
N1400 G03 X79.519 Y64.358 I22.395 J-22.858
N1410 G01 X65.545
N1420 G02 X54.455 I-5.545 J10.642
N1430 G01 X34.137
N1440 G02 X39.979 Y60.858 I-1.637 J-9.358
N1450 G01 X77.206
N1460 G03 X75.482 Y57.358 I27.794 J-15.858
N1470 G01 X41.703
N1480 G02 X42 Y55 I-9.203 J-2.358
N1490 G01 Y53.858
N1500 G01 X74.25
N1510 G03 X73.452 Y50.358 I30.75 J-8.858
N1520 G01 X42
N1530 G01 Y46.858
N1540 G01 X73.054
N1550 G03 X73.042 Y43.358 I31.946 J-1.858
N1560 G01 X42
N1570 G01 Y39.858
N1580 G01 X73.416
N1590 G03 X74.189 Y36.358 I31.584 J5.142
N1600 G01 X42
N1610 G01 Y35
N1620 G03 X42.9 Y32.858 I3 J0
N1630 G01 X75.393
N1640 G03 X77.084 Y29.358 I29.607 J12.142
N1650 G01 X55.478
N1660 G02 X56.947 Y25.858 I-5.478 J-4.358
N1670 G01 X79.357
N1680 G03 X82.387 Y22.358 I25.643 J19.142
N1690 G01 X57
N1700 G01 Y19.172
N1710 G01 X56.686 Y18.858
N1720 G01 X86.545
N1730 G03 X88.667 Y17.482 I18.455 J26.142
N1740 G01 X86.885 Y15.358
N1750 G01 X53.186
N1760 G01 X50.828 Y13
N1770 G01 X33.09
N1780 G02 X27.851 Y15.358 I0 J7
N1790 G01 X23.177
N1800 G01 X21.677 Y18.858
N1810 G01 X25.835
N1820 G01 X24.085 Y22.358
N1830 G01 X20.177
N1840 G01 X18.677 Y25.858
N1850 G01 X23
N1860 G01 Y29.358
N1870 G01 X17.177
N1880 G01 X15.677 Y32.858
N1890 G01 X23
N1900 G01 Y36.358
N1910 G01 X14.177
N1920 G01 X12.677 Y39.858
N1930 G01 X23
N1940 G01 Y43.358
N1950 G01 X12
N1960 G01 Y46.858
N1970 G01 X23
N1980 G01 Y50.358
N1990 G01 X12
N2000 G01 Y53.858
N2010 G01 X23
N2020 G01 Y55
N2030 G02 X23.297 Y57.358 I9.5 J0
N2040 G01 X12
N2050 G01 Y60.858
N2060 G01 X25.021
N2070 G02 X30.863 Y64.358 I7.479 J-5.858
N2080 G01 X12
N2090 G01 Y67.858
N2100 G01 X50.357
N2110 G02 X48.566 Y71.358 I9.643 J7.142
N2120 G01 X12
N2130 G01 Y74.858
N2140 G01 X48.001
N2150 G02 X48.479 Y78.358 I11.999 J0.142
N2160 G01 X12
N2170 G01 Y81.858
N2180 G01 X50.153
N2190 G02 X53.941 Y85.358 I9.847 J-6.858
N2200 G01 X12
N2210 G00 Z2 M09
N2220 G00 X92.757 Y102.858
N2230 G01 Z-20 F100 M08
N2240 G01 X100.5 F61
N2250 G01 Y99.358
N2260 G01 X89.257
N2270 G00 Z2 M09
N2280 G00 X84.067 Y12
N2290 G01 Z-20 F100 M08
N2300 G01 X24.616 F61
N2310 G01 X12 Y41.437
N2320 G01 Y87.757
N2330 G01 X23.929 Y104.457
N2340 G03 X52.042 Y98 I16.071 J5.543
N2350 G01 X87.899
N2360 G01 X95.379 Y105.479
N2370 G02 X100.5 Y103.358 I2.121 J-2.121
N2380 G01 Y76.682
N2390 G03 X88.667 Y17.482 I4.5 J-31.682
N2400 G01 X84.067 Y12
N2410 G00 Z2 M09
N2420 G00 X72 Y75
N2430 G01 Z-20 F100 M08
N2440 G02 I-12 J0 F61
N2450 G00 Z2 M09
N2460 G00 X42 Y35
N2470 G01 Z-20 F100 M08
N2480 G01 Y55 F61
N2490 G03 X23 I-9.5 J0
N2500 G01 Y24.528
N2510 G01 X26.829 Y16.87
N2520 G03 X33.09 Y13 I6.261 J3.13
N2530 G01 X50.828
N2540 G01 X57 Y19.172
N2550 G01 Y25
N2560 G03 X50 Y32 I-7 J0
N2570 G01 X45
N2580 G02 X42 Y35 I0 J3
N2590 G00 Z2 M09
N2600 G00 X125 Y45 T1
N2610 G01 Z-30 F100 M08
N2620 G02 I-20 J0 F61
N2630 G02 X93 I-16 J0
N2640 G02 X117 I12 J0
N2650 G02 X101 I-8 J0
N2660 G02 X109 I4 J0
N2670 G00 Z2 M09
N2680 G00 X60 Y75
N2690 G00
N2700 G81 Z-30 M08
N2710 G00 X200 Y200

($SetPartSize(150, 150, 50, 1) )
($FullScreen("BLOCK") )
%
N10 G00 Z2 M09
N20 G00 X-4 Y147 T8
N30 G01 Z-45 F100 S2500 M03 M08
N40 G01 X36 F61
N50 G01 Y140
N60 G01 X-4
N70 G01 Y133
N80 G01 X36
N90 G01 Y129
N100 G01 X1
N110 G01 Y126
N120 G01 X-4
N130 G01 Y119
N140 G01 X1
N150 G01 Y112
N160 G01 X-4
N170 G01 Y105
N180 G01 X1
N190 G01 Y98
N200 G01 X-4
N210 G01 Y91
N220 G01 X1
N230 G01 Y87.292
N240 G01 X9.23 Y84
N250 G01 X-4
N260 G01 Y77
N270 G01 X26
N280 G01 Y70
N290 G01 X-4
N300 G01 Y63
N310 G01 X1
N320 G01 Y56
N330 G01 X-4
N340 G01 Y49
N350 G01 X1
N360 G01 Y42
N370 G01 X-4
N380 G01 Y35
N390 G01 X1
N400 G01 Y28
N410 G01 X-4
N420 G01 Y21
N430 G01 X4.056
N440 G01 X18.056 Y14
N450 G01 X-4
N460 G01 Y7
N470 G01 X32.056
N480 G01 X44.056 Y1
N490 G01 X124
N500 G01 Y7
N510 G01 X154
N520 G01 Y0
N530 G01 X-4
N540 G00 Z2 M09
N550 G00 X154 Y147
N560 G01 Z-45 F100 M08
N570 G01 X124 F61
N580 G01 Y140
N590 G01 X154
N600 G01 Y133
N610 G01 X140.196
N620 G02 X147.649 Y126 I-5.196 J-13
N630 G01 X154
N640 G01 Y119
N650 G01 X148.964
N660 G02 X146.489 Y112 I-13.964 J1
N670 G01 X154
N680 G01 Y105
N690 G01 X124
N700 G01 Y104
N710 G01 X135
N720 G02 X146.489 Y98 I0 J-14
N730 G01 X154
N740 G01 Y91
N750 G01 X148.964
N760 G02 X149 Y90 I-13.964 J-1
N770 G02 X147.649 Y84 I-14 J0
N780 G01 X154
N790 G01 Y77
N800 G01 X140.196
N810 G02 X135 Y76 I-5.196 J13
N820 G01 X124
N830 G01 Y74
N840 G01 X135
N850 G02 X144.798 Y70 I0 J-14
N860 G01 X154
N870 G01 Y63
N880 G01 X148.675
N890 G02 X149 Y60 I-13.675 J-3
N900 G02 X148.416 Y56 I-14 J0
N910 G01 X154
N920 G01 Y49
N930 G01 X143.66
N940 G02 X135 Y46 I-8.66 J11
N950 G01 X124
N960 G01 Y44
N970 G01 X135
N980 G02 X142.211 Y42 I0 J-14
N990 G01 X154
N1000 G01 Y35
N1010 G01 X148.077
N1020 G02 X149 Y30 I-13.077 J-5
N1030 G02 X148.856 Y28 I-14 J0
N1040 G01 X154
N1050 G01 Y21
N1060 G01 X145.724
N1070 G02 X135 Y16 I-10.724 J9
N1080 G01 X124
N1090 G01 Y14
N1100 G01 X154
N1110 G00 Z2 M09
N1120 G00 Y-4
N1130 G01 Z-45 F100 M08
N1140 G01 X-4 F61
N1150 G01 Y154
N1160 G01 X154
N1170 G01 Y-4
N1180 G00 Z2 M09
N1190 G00 X44.056 Y1
N1200 G01 Z-45 F100 M08
N1210 G01 X1 Y22.528 F61
N1220 G01 Y69
N1230 G01 X26
N1240 G01 Y77.292
N1250 G01 X1 Y87.292
N1260 G01 Y129
N1270 G01 X36
N1280 G01 Y149
N1290 G01 X124
N1300 G01 Y134
N1310 G01 X135
N1320 G02 X149 Y120 I0 J-14
N1330 G02 X135 Y106 I-14 J0
N1340 G01 X124
N1350 G01 Y104
N1360 G01 X135
N1370 G02 X149 Y90 I0 J-14
N1380 G02 X135 Y76 I-14 J0
N1390 G01 X124
N1400 G01 Y74
N1410 G01 X135
N1420 G02 X149 Y60 I0 J-14
N1430 G02 X135 Y46 I-14 J0
N1440 G01 X124
N1450 G01 Y44
N1460 G01 X135
N1470 G02 X149 Y30 I0 J-14
N1480 G02 X135 Y16 I-14 J0
N1490 G01 X124
N1500 G01 Y1
N1510 G01 X44.056
N1520 G00 Z2 M09
N1530 G00 X135 Y19.608 T1
N1540 G01 Z-35 F100 M08
N1550 G01 X126 Y24.804 F61
N1560 G01 Y35.196
N1570 G01 X135 Y40.392
N1580 G01 X144 Y35.196
N1590 G01 Y24.804
N1600 G01 X135 Y19.608
N1610 G00 Z2 M09
N1620 G00 X126 Y54.804
N1630 G01 Z-35 F100 M08
N1640 G01 Y65.196 F61
N1650 G01 X135 Y70.392
N1660 G01 X144 Y65.196
N1670 G01 Y54.804
N1680 G01 X135 Y49.608
N1690 G01 X126 Y54.804
N1700 G00 Z2 M09
N1710 G00 Y84.804
N1720 G01 Z-35 F100 M08
N1730 G01 Y95.196 F61
N1740 G01 X135 Y100.392
N1750 G01 X144 Y95.196
N1760 G01 Y84.804
N1770 G01 X135 Y79.608
N1780 G01 X126 Y84.804
N1790 G00 Z2 M09
N1800 G00 Y114.804
N1810 G01 Z-35 F100 M08
N1820 G01 Y125.196 F61
N1830 G01 X135 Y130.392
N1840 G01 X144 Y125.196
N1850 G01 Y114.804
N1860 G01 X135 Y109.608
N1870 G01 X126 Y114.804
N1880 G00 Z2 M09
N1890 G00 X125 Y145
N1900 G01 Z-35 F100 M08
N1910 G01 Y130 F61
N1920 G01 Y110
N1930 G01 Y100
N1940 G01 Y80
N1950 G01 Y70
N1960 G01 Y50
N1970 G01 Y40
N1980 G01 Y20
N1990 G01 Y5
N2000 G01 Z-25 F100
N2010 G01 X135 Y17 F61
N2020 G01 Y140
N2030 G00 Z2 M09
N2040 G00 X120 Y130 T2
N2050 G01 Z-25 F100 M08
N2060 G01 Y145 F61
N2070 G01 X40
N2080 G01 Y125
N2090 G01 X5
N2100 G01 Y90
N2110 G01 X30 Y80
N2120 G01 Y65
N2130 G01 X5
N2140 G01 Y25
N2150 G01 X45 Y5
N2160 G01 X120
N2170 G01 Y20
N2180 G01 Y40
N2190 G01 Y50
N2200 G01 Y70
N2210 G01 Y80
N2220 G01 Y100
N2230 G01 Y110
N2240 G01 Y130
N2250 G00 Z2 M09
N2260 G00 X36 Y72.5 T5
N2270 G01 Z-30 F100 M08
N2280 G01 X68.122 F61
N2290 G02 X68.873 Y71 I-3.122 J-2.5
N2300 G01 X36
N2310 G01 Y69.5
N2320 G01 X69
N2330 G01 Y68.09
N2340 G03 X69 Y68 I11 J0
N2350 G01 X36
N2360 G01 Y66.5
N2370 G01 X69.116
N2380 G03 X69.443 Y65 I10.884 J1.59
N2390 G01 X36
N2400 G01 Y63.5
N2410 G01 X70.003
N2420 G03 X70.84 Y62 I9.997 J4.59
N2430 G01 X36
N2440 G01 Y60.5
N2450 G01 X72.038
N2460 G03 X73.806 Y59 I7.962 J7.59
N2470 G01 X11
N2480 G01 Y57.5
N2490 G01 X77.025
N2500 G03 X82.975 I2.975 J10.59
N2510 G01 X91.826
N2520 G03 X90.691 Y56 I8.174 J-7.361
N2530 G01 X11
N2540 G01 Y54.5
N2550 G01 X89.901
N2560 G03 X89.378 Y53 I10.099 J-4.361
N2570 G01 X11
N2580 G01 Y51.5
N2590 G01 X89.084
N2600 G03 X89.001 Y50 I10.916 J-1.361
N2610 G01 X11
N2620 G01 Y48.5
N2630 G01 X89.123
N2640 G03 X89.457 Y47 I10.877 J1.639
N2650 G01 X11
N2660 G01 Y45.5
N2670 G01 X90.026
N2680 G03 X90.873 Y44 I9.974 J4.639
N2690 G01 X11
N2700 G01 Y42.5
N2710 G01 X92.085
N2720 G03 X93.878 Y41 I7.915 J7.639
N2730 G01 X11
N2740 G01 Y39.5
N2750 G01 X97.206
N2760 G03 X102.794 I2.794 J10.639
N2770 G01 X114
N2780 G01 Y38
N2790 G01 X11
N2800 G01 Y36.5
N2810 G01 X114
N2820 G01 Y35
N2830 G01 X11
N2840 G01 Y33.5
N2850 G01 X114
N2860 G01 Y32
N2870 G01 X11
N2880 G01 Y30.5
N2890 G01 X114
N2900 G01 Y29
N2910 G01 X11
N2920 G01 Y28.708
N2930 G01 X13.416 Y27.5
N2940 G01 X114
N2950 G01 Y26
N2960 G01 X16.416
N2970 G01 X19.416 Y24.5
N2980 G01 X114
N2990 G01 Y23
N3000 G01 X22.416
N3010 G01 X25.416 Y21.5
N3020 G01 X114
N3030 G01 Y20
N3040 G01 X28.416
N3050 G01 X31.416 Y18.5
N3060 G01 X114
N3070 G01 Y17
N3080 G01 X34.416
N3090 G01 X37.416 Y15.5
N3100 G01 X114
N3110 G01 Y14
N3120 G01 X40.416
N3130 G01 X43.416 Y12.5
N3140 G01 X114
N3150 G00 Z2 M09
N3160 G00 X104.182 Y63.5
N3170 G01 Z-30 F100 M08
N3180 G01 X95.818 F61
N3190 G03 X93.739 Y62.661 I4.182 J-13.361
N3200 G01 X92.416 Y62
N3210 G01 X107.438
N3220 G02 X109.416 Y60.5 I-7.438 J-11.861
N3230 G01 X103.695
N3240 G02 X106.518 Y59 I-3.695 J-10.361
N3250 G01 X110.839
N3260 G02 X111.909 Y57.5 I-10.839 J-8.861
N3270 G01 X108.174
N3280 G02 X109.309 Y56 I-8.174 J-7.361
N3290 G01 X112.714
N3300 G02 X113.304 Y54.5 I-12.714 J-5.861
N3310 G01 X110.099
N3320 G02 X110.622 Y53 I-10.099 J-4.361
N3330 G01 X113.705
N3340 G02 X113.934 Y51.5 I-13.705 J-2.861
N3350 G01 X110.916
N3360 G02 X111 Y50.139 I-10.916 J-1.361
N3370 G02 X110.999 Y50 I-11 J0
N3380 G01 X114
N3390 G01 Y48.5
N3400 G01 X110.877
N3410 G02 X110.543 Y47 I-10.877 J1.639
N3420 G01 X114
N3430 G01 Y45.5
N3440 G01 X109.974
N3450 G02 X109.127 Y44 I-9.974 J4.639
N3460 G01 X114
N3470 G01 Y42.5
N3480 G01 X107.915
N3490 G02 X106.122 Y41 I-7.915 J7.639
N3500 G01 X114
N3510 G00 Z2 M09
N3520 G00 X89.416 Y60.5
N3530 G01 Z-30 F100 M08
N3540 G01 X96.305 F61
N3550 G03 X93.482 Y59 I3.695 J-10.361
N3560 G01 X86.416
N3570 G00 Z2 M09
N3580 G00 X114 Y11
N3590 G01 Z-30 F100 M08
N3600 G01 X46.416 F61
N3610 G01 X11 Y28.708
N3620 G01 Y59
N3630 G01 X36
N3640 G01 Y74
N3650 G01 X65
N3660 G02 X69 Y70 I0 J-4
N3670 G01 Y68.09
N3680 G03 X84.919 Y58.251 I11 J0
N3690 G01 X93.739 Y62.661
N3700 G02 X114 Y50.139 I6.261 J-12.522
N3710 G01 Y11
N3720 G00 Z2 M09
N3730 G00 X111 Y50.139
N3740 G01 Z-30 F100 M08
N3750 G02 I-11 J0 F61
N3760 G00 Z2 M09
N3770 G00 X73.126 Y31.548 T1
N3780 G81 Z-45 M08
N3790 G00 X64.696 Y22.508
N3800 G81 Z-45
N3810 G00 X52.563 Y20.149
N3820 G81 Z-45
N3830 G00 X41.36 Y25.373
N3840 G81 Z-45
N3850 G00 X35.367 Y36.184
N3860 G81 Z-45
N3870 G00 X36.874 Y48.452
N3880 G81 Z-45
N3890 G00 X45.304 Y57.492
N3900 G81 Z-45
N3910 G00 X57.437 Y59.851
N3920 G81 Z-45
N3930 G00 X68.64 Y54.627
N3940 G81 Z-45
N3950 G00 X74.633 Y43.816
N3960 G81 Z-45
N3970 G00 X105 Y50.139
N3980 G01 Z-45 F100
N3990 G03 I-5 J0 F61
N4000 G03 X96.5 I-4.25 J0
N4010 G00 Z2 M09
N4020 G00 X110
N4030 G01 Z-10 F100 M08
N4040 G02 I-10 J0 F61
N4050 G00 Z2 M09
N4060 G00 X47 Y134.5 T4
N4070 G01 Z-35 F100 M08
N4080 G01 X68.653 F61
N4090 G03 X63.029 Y131 I11.347 J-24.5
N4100 G01 X47
N4110 G01 Y127.5
N4120 G01 X59.439
N4130 G03 X56.913 Y124 I20.561 J-17.5
N4140 G01 X47
N4150 G01 Y120.5
N4160 G01 X55.125
N4170 G03 X53.923 Y117 I24.875 J-10.5
N4180 G01 X12
N4190 G01 Y113.5
N4200 G01 X53.228
N4210 G03 X53 Y110 I26.772 J-3.5
N4220 G01 X12
N4230 G01 Y106.5
N4240 G01 X53.228
N4250 G03 X53.923 Y103 I26.772 J3.5
N4260 G01 X12
N4270 G01 Y99.5
N4280 G01 X55.125
N4290 G03 X56.913 Y96 I24.875 J10.5
N4300 G01 X12
N4310 G01 Y94.739
N4320 G01 X17.598 Y92.5
N4330 G01 X59.439
N4340 G03 X63.029 Y89 I20.561 J17.5
N4350 G01 X26.348
N4360 G01 X35.098 Y85.5
N4370 G01 X68.653
N4380 G03 X91.347 I11.347 J24.5
N4390 G01 X112.441
N4400 G02 X110.777 Y82 I-12.441 J3.771
N4410 G01 X70
N4420 G02 X76.062 Y78.5 I0 J-7
N4430 G01 X107.28
N4440 G02 X105.814 Y77.643 I-7.28 J10.771
N4450 G01 X100.528 Y75
N4460 G01 X77
N4470 G01 Y71.5
N4480 G01 X93.528
N4490 G01 X86.528 Y68
N4500 G01 X77.001
N4510 G00 Z2 M09
N4520 G00 X113 Y134.5
N4530 G01 Z-35 F100 M08
N4540 G01 X91.347 F61
N4550 G02 X96.971 Y131 I-11.347 J-24.5
N4560 G01 X113
N4570 G01 Y127.5
N4580 G01 X100.561
N4590 G02 X103.087 Y124 I-20.561 J-17.5
N4600 G01 X113
N4610 G01 Y120.5
N4620 G01 X104.875
N4630 G02 X106.077 Y117 I-24.875 J-10.5
N4640 G01 X113
N4650 G01 Y113.5
N4660 G01 X106.772
N4670 G02 X107 Y110 I-26.772 J-3.5
N4680 G01 X113
N4690 G01 Y106.5
N4700 G01 X106.772
N4710 G02 X106.077 Y103 I-26.772 J3.5
N4720 G01 X113
N4730 G01 Y99.5
N4740 G01 X104.875
N4750 G02 X103.087 Y96 I-24.875 J10.5
N4760 G01 X113
N4770 G01 Y92.5
N4780 G01 X100.561
N4790 G02 X96.971 Y89 I-20.561 J17.5
N4800 G01 X112.997
N4810 G00 Z2 M09
N4820 G00 X105.814 Y77.643
N4830 G01 Z-35 F100 M08
N4840 G01 X81.342 Y65.407 F61
N4850 G02 X77 Y68.09 I-1.342 J2.683
N4860 G01 Y75
N4870 G03 X70 Y82 I-7 J0
N4880 G01 X37
N4890 G01 Y84.739
N4900 G01 X12 Y94.739
N4910 G01 Y118
N4920 G01 X47
N4930 G01 Y138
N4940 G01 X113
N4950 G01 Y89.271
N4960 G02 X105.814 Y77.643 I-13 J0
N4970 G00 Z2 M09
N4980 G00 X107 Y110
N4990 G01 Z-35 F100 M08
N5000 G02 I-27 J0 F61
N5010 G00 Z2 M09
N5020 G00 X90.665 Y124.5
N5030 G01 Z-35 F100 M08
N5040 G01 X69.335 F61
N5050 G03 X65.752 Y121 I10.665 J-14.5
N5060 G01 X75.204
N5070 G03 X70.633 Y117.5 I4.796 J-11
N5080 G01 X63.637
N5090 G03 X62.45 Y114 I16.363 J-7.5
N5100 G01 X68.686
N5110 G03 X68.01 Y110.5 I11.314 J-4
N5120 G01 X62.007
N5130 G03 X62.252 Y107 I17.993 J-0.5
N5140 G01 X68.381
N5150 G03 X69.913 Y103.5 I11.619 J3
N5160 G01 X63.215
N5170 G03 X65.033 Y100 I16.785 J6.5
N5180 G01 X73.367
N5190 G03 X86.633 I6.633 J10
N5200 G01 X94.967
N5210 G02 X91.906 Y96.5 I-14.967 J10
N5220 G01 X68.094
N5230 G03 X74.084 Y93 I11.906 J13.5
N5240 G01 X85.916
N5250 G00 Z2 M09
N5260 G00 X94.248 Y121
N5270 G01 Z-35 F100 M08
N5280 G01 X84.796 F61
N5290 G02 X89.367 Y117.5 I-4.796 J-11
N5300 G01 X96.363
N5310 G02 X97.55 Y114 I-16.363 J-7.5
N5320 G01 X91.314
N5330 G02 X91.99 Y110.5 I-11.314 J-4
N5340 G01 X97.993
N5350 G02 X98 Y110 I-17.993 J-0.5
N5360 G02 X97.748 Y107 I-18 J0
N5370 G01 X91.619
N5380 G02 X90.087 Y103.5 I-11.619 J3
N5390 G01 X96.785
N5400 G00 Z2 M09
N5410 G00 X98 Y110
N5420 G01 Z-35 F100 M08
N5430 G02 I-18 J0 F61
N5440 G00 Z2 M09
N5450 G00 X92
N5460 G01 Z-35 F100 M08
N5470 G02 I-12 J0 F61
N5480 G00 Z2 M09
N5490 G00 X35 Y77.5 T1
N5500 G01 Z-25 F100 M08
N5510 G01 X65 F61
N5520 G02 X72.5 Y70 I0 J-7.5
N5530 G01 Y68.09
N5540 G03 X83.354 Y61.382 I7.5 J0
N5550 G01 X107.826 Y73.618
N5560 G03 X115 Y80.257 I-7.826 J15.652
N5570 G01 Y59.153
N5580 G03 X92.174 Y65.792 I-15 J-9.014
N5590 G00 Z2 M09
N5600 G00 X102.5 Y110
N5610 G01 Z-45 F100 M08
N5620 G02 I-22.5 J0 F61
N5630 G00 Z2 M09
N5640 G00 X89.798 Y112
N5650 G01 Z-10 F100 M08
N5660 G01 X70.202 F61
N5670 G03 X72 Y104 I9.798 J-2
N5680 G01 X88
N5690 G00 Z2 M09
N5700 G00 X90 Y110
N5710 G01 Z-10 F100 M08
N5720 G02 I-10 J0 F61
N0000 G01 X80
N0000 G81 Z-45
N5730 G00 Z2 M09

($SetPartSize(52, 101, 0, 2) )
%1  
N10 T26 M03
N20 G00 X54 Z100
N30 S2000 F300 M8         
N40 G01 X-2        
N50 G00 X0 Z102
N60 G00 X50
N70 G01 Z0.5 
N80 G00 Z12 X52 M09
N90 T21                
N100 G00 X0 Z102 M08
N110 G01 Z50 F100      
N115 G00 Z102 M09
N120 T09           
N130 G00 X52 Z40 M08
N140 G01 X32
N150 G00 X52
N160 G00 Z37
N170 G01 X32
N180 G00 X52
N190 G00 Z34
N200 G01 X32
N210 G00 X52
N220 G00 Z31
N230 G01 X30
N240 G00 X52
N250 G00 Z28
N260 G01 X30
N270 G00 X52
N280 G00 Z25
N290 G01 X30
N300 G00 X52
N310 G00 Z22
N320 G01 X30
N330 G00 X52
N340 G00 Z19
N350 G01 X30
N360 G00 X52
N370 G00 Z16
N380 G01 X30
N390 G00 X52
N400 G00 Z13
N410 G01 X30
N420 G00 X52
N430 T2 G00 X40 Z100
N440 G03 X50 Z95 I0 K-5
N441 G00 X52
N442 G00 Z14
N443 G00 X40
N444 G01 X40 Z13
N445 G03 X50 Z8 I0 K-5
N450 T23 G00 X40 Z103
N470 G01 X36 Z98
N480 G01 Z82
N481 G01 X38 Z80
N482 G01 Z62
N483 G01 X36 Z60
N484 G01 X30
N485 G00 Z100 M09
N490 T24           
N500 G00 Z34 X52 M08
N510 G00 X34
N520 G01 X30
N530 G01 Z40
N540 G03 X40 Z45 I5 K0
N550 G02 X50 Z50 I0 K5
N555 G01 Z51

($SetPartSize(120, 140, 30, 1) )
($SetFullScreen("3D") )
%
(Made by CamModul)
G92 X60 Y40
N10 G00 Z2 M09
N20 G00 X-60 Y92 T1
N30 G01 Z-20 F100 S2500 M03 M08
N40 G01 X-27.673 F61
N50 G03 X-39.187 Y84 I30.373 J-56
N60 G01 X-60
N70 G01 Y76
N80 G01 X-46.883
N90 G03 X-52.386 Y68 I49.583 J-40
N100 G01 X-60
N110 G01 Y60
N120 G01 X-56.313
N130 G03 X-58.965 Y52 I59.013 J-24
N140 G01 X-60
N150 G01 Y44
N160 G01 X-60.502
N170 G03 X-61.006 Y36 I63.202 J-8
N180 G01 X-60
N190 G01 Y28
N200 G01 X-60.502
N210 G03 X-58.965 Y20 I63.202 J8
N220 G01 X-60
N230 G01 Y12
N240 G01 X-56.313
N250 G03 X-52.386 Y4 I59.013 J24
N260 G01 X-60
N270 G01 Y-4
N280 G01 X-46.883
N290 G03 X-40.726 Y-10.612 I49.583 J40
N300 G02 X-39.455 Y-12 I-8.112 J-8.707
N310 G01 X-60
N320 G01 Y-20
N330 G01 X-35.355
N340 G03 X-29.428 Y-28 I35.355 J20
N350 G01 X-60
N360 G01 Y-36
N370 G01 X-18.814
N380 G03 X-0.012 Y-40.62 I18.814 J36
N390 G03 X18.79 Y-36 I-0.012 J40.62
N400 G01 X60
N410 G01 Y-28
N420 G01 X29.404
N430 G03 X35.331 Y-20 I-29.428 J28
N440 G01 X60
N450 G01 Y-12
N460 G01 X39.431
N470 G00 Z2 M09
N480 G00 X60 Y92
N490 G01 Z-20 F100 M08
N500 G01 X27.649 F61
N510 G02 X39.163 Y84 I-30.373 J-56
N520 G01 X60
N530 G01 Y76
N540 G01 X46.859
N550 G02 X52.362 Y68 I-49.583 J-40
N560 G01 X60
N570 G01 Y60
N580 G01 X56.289
N590 G02 X58.941 Y52 I-59.013 J-24
N600 G01 X60
N610 G01 Y44
N620 G01 X60.478
N630 G02 X60.982 Y36 I-63.202 J-8
N640 G01 X60
N650 G01 Y28
N660 G01 X60.478
N670 G02 X58.941 Y20 I-63.202 J8
N680 G01 X60
N690 G01 Y12
N700 G01 X56.289
N710 G02 X52.362 Y4 I-59.013 J24
N720 G01 X60
N730 G01 Y-4
N740 G01 X46.859
N750 G00 Z2 M09
N760 G00 X-6.579 Y92
N770 G01 Z-20 F100 M08
N780 G01 X6.555 F61
N790 G03 X9.418 Y84 I7.021 J-2
N800 G01 X-9.442
N810 G02 X-10.643 Y83.326 I-4.158 J6
N820 G03 X-22.662 Y76 I21.943 J-49.526
N830 G01 X22.638
N840 G02 X30.684 Y68 I-33.962 J-42.2
N850 G01 X-30.708
N860 G03 X-36.112 Y60 I42.008 J-34.2
N870 G01 X36.088
N880 G02 X39.696 Y52 I-47.412 J-26.2
N890 G01 X-39.72
N900 G03 X-41.9 Y44 I51.02 J-18.2
N910 G01 X41.876
N920 G02 X42.8 Y36 I-53.2 J-10.2
N930 G01 X18.79
N940 G02 X29.404 Y28 I-18.814 J-36
N950 G01 X42.469
N960 G00 Z2 M09
N970 G00 X-42.824 Y36
N980 G01 Z-20 F100 M08
N990 G01 X-18.814 F61
N1000 G03 X-29.428 Y28 I18.814 J-36
N1010 G01 X-42.493
N1020 G00 Z2 M09
N1030 G00 X60 Y-40
N1040 G01 Z-20 F100 M08
N1050 G01 X-60 F61
N1060 G01 Y100
N1070 G01 X60
N1080 G01 Y-40
N1090 G00 Z2 M09
N1100 G00 X-0.012 Y-40.62
N1110 G01 Z-20 F100 M08
N1120 G02 X-37.772 Y-14.942 I0.012 J40.62 F61
N1130 G03 X-40.726 Y-10.612 I-11.066 J-4.377
N1140 G02 X-15.71 Y96.989 I43.426 J46.612
N1150 G02 X-10.643 Y83.326 I2.11 J-6.989
N1160 G03 X-42.699 Y29.516 I21.943 J-49.526
N1170 G03 X-31.645 Y25.467 I6.299 J0.084
N1180 G02 X-0.012 Y40.62 I31.645 J-25.467
N1190 G02 X31.621 Y25.467 I-0.012 J-40.62
N1200 G03 X42.675 Y29.516 I4.755 J4.133
N1210 G03 X10.619 Y83.326 I-53.999 J4.284
N1220 G02 X15.686 Y96.989 I2.957 J6.674
N1230 G02 X40.702 Y-10.612 I-18.41 J-60.989
N1240 G03 X37.748 Y-14.942 I8.112 J-8.707
N1250 G02 X-0.012 Y-40.62 I-37.772 J14.942
N1260 G00 Z2 M09
N1270 G00 X-23.224 Y0
N1280 G01 Z-20 F100 M08
N1290 G03 I23.2 J0 F61
N1300 G03 X15.176 I19.2 J0
N1310 G03 X-15.224 I-15.2 J0
N1320 G03 X7.176 I11.2 J0
N1330 G03 X-7.224 I-7.2 J0
N1340 G03 X-0.824 I3.2 J0
N1350 G00 Z2 M09
N1360 G00 X42.397 Y-16.781 T2
N1370 G01 Z-10 F100 M08
N1380 G02 X-0.012 Y-45.62 I-42.421 J16.781 F61
N1390 G02 X-42.421 Y-16.781 I0.012 J45.62
N1400 G02 X-35.603 Y28.524 I42.421 J16.781
N1410 G02 X-0.012 Y45.62 I35.603 J-28.524
N1420 G02 X35.579 Y28.524 I-0.012 J-45.62
N1430 G02 X42.397 Y-16.781 I-35.603 J-28.524
N1440 G01 X52 Y42
N1450 G01 X44 Y66
N1460 G01 X26 Y84
N1470 G01 X2 Y92
N1480 G01 X-16 Y88
N1490 G01 X-32 Y78
N1500 G01 X-46 Y62
N1510 G01 X-52 Y38
N1520 G01 X-50 Y18
N1530 G00 Z2 M09

($SetPartSize(69.000, 104.500, 0.000, 2) )
(This program was created by the MicroTech MiniCam)
N0 G0 X71.000 Z105.500
N10 G1 X71.000 Z2.000
N20 G0 X72.000 Z3.000
N30 G0 X72.000 Z105.500
N40 G0 X69.000 Z105.500
N50 G1 X69.000 Z2.000
N60 G0 X70.000 Z3.000
N70 G0 X70.000 Z105.500
N80 G0 X67.000 Z105.500
N90 G1 X67.000 Z10.092
N100 G0 X68.000 Z11.092
N110 G0 X68.000 Z105.500
N120 G0 X65.000 Z105.500
N130 G1 X65.000 Z10.377
N140 G0 X66.000 Z11.377
N150 G0 X66.000 Z105.500
N160 G0 X63.000 Z105.500
N170 G1 X63.000 Z10.890
N180 G0 X64.000 Z11.890
N190 G0 X64.000 Z105.500
N200 G0 X61.000 Z105.500
N210 G1 X61.000 Z11.725
N220 G0 X62.000 Z12.725
N230 G0 X62.000 Z105.500
N240 G0 X59.000 Z105.500
N250 G1 X59.000 Z13.209
N260 G0 X60.000 Z14.209
N270 G0 X60.000 Z105.500
N280 G0 X57.000 Z105.500
N290 G1 X57.000 Z44.100
N300 G0 X58.000 Z45.100
N310 G0 X58.000 Z105.500
N320 G0 X55.000 Z105.500
N330 G1 X55.000 Z45.300
N340 G0 X56.000 Z46.300
N350 G0 X56.000 Z105.500
N360 G0 X53.000 Z105.500
N370 G1 X53.000 Z46.500
N380 G0 X54.000 Z47.500
N390 G0 X54.000 Z105.500
N400 G0 X51.000 Z105.500
N410 G1 X51.000 Z46.500
N420 G0 X52.000 Z47.500
N430 G0 X52.000 Z105.500
N440 G0 X49.000 Z105.500
N450 G1 X49.000 Z46.500
N460 G0 X50.000 Z47.500
N470 G0 X50.000 Z105.500
N480 G0 X47.000 Z105.500
N490 G1 X47.000 Z46.500
N500 G0 X48.000 Z47.500
N510 G0 X48.000 Z105.500
N520 G0 X45.000 Z105.500
N530 G1 X45.000 Z46.500
N540 G0 X46.000 Z47.500
N550 G0 X46.000 Z105.500
N560 G0 X43.000 Z105.500
N570 G1 X43.000 Z80.162
N580 G0 X44.000 Z81.162
N590 G0 X44.000 Z105.500
N600 G0 X41.000 Z105.500
N610 G1 X41.000 Z81.243
N620 G0 X42.000 Z82.243
N630 G0 X42.000 Z105.500
N640 G0 X39.000 Z105.500
N650 G1 X39.000 Z81.899
N660 G0 X40.000 Z82.899
N670 G0 X40.000 Z105.500
N680 G0 X37.000 Z105.500
N690 G1 X37.000 Z82.292
N700 G0 X38.000 Z83.292
N710 G0 X38.000 Z105.500
N720 G0 X35.000 Z105.500
N730 G1 X35.000 Z82.477
N740 G0 X36.000 Z83.477
N750 G0 X36.000 Z105.500
N760 G0 X33.000 Z105.500
N770 G1 X33.000 Z101.100
N780 G0 X34.000 Z102.100
N790 G0 X34.000 Z105.500
N800 G0 X31.000 Z105.500
N810 G1 X31.000 Z102.300
N820 G0 X32.000 Z103.300
N830 G0 X32.000 Z105.500
N840 G0 X29.000 Z105.500
N850 G1 X29.000 Z103.500
N860 G0 X30.000 Z104.500
N870 G0 X30.000 Z105.500
N880 G0 X27.000 Z105.500
N890 G1 X27.000 Z103.500
N900 G0 X28.000 Z104.500
N910 G0 X28.000 Z105.500
N920 G0 X25.000 Z105.500
N930 G1 X25.000 Z103.500
N940 G0 X26.000 Z104.500
N950 G0 X26.000 Z105.500
N960 G0 X23.000 Z105.500
N970 G1 X23.000 Z103.500
N980 G0 X24.000 Z104.500
N990 G0 X24.000 Z105.500
N1000 G0 X21.000 Z105.500
N1010 G1 X21.000 Z103.500
N1020 G0 X22.000 Z104.500
N1030 G0 X22.000 Z105.500
N1040 G0 X19.000 Z105.500
N1050 G1 X19.000 Z103.500
N1060 G0 X20.000 Z104.500
N1070 G0 X20.000 Z105.500
N1080 G0 X17.000 Z105.500
N1090 G1 X17.000 Z103.500
N1100 G0 X18.000 Z104.500
N1110 G0 X18.000 Z105.500
N1120 G0 X15.000 Z105.500
N1130 G1 X15.000 Z103.500
N1140 G0 X16.000 Z104.500
N1150 G0 X16.000 Z105.500
N1160 G0 X13.000 Z105.500
N1170 G1 X13.000 Z103.500
N1180 G0 X14.000 Z104.500
N1190 G0 X14.000 Z105.500
N1200 G0 X11.000 Z105.500
N1210 G1 X11.000 Z103.500
N1220 G0 X12.000 Z104.500
N1230 G0 X12.000 Z105.500
N1240 G0 X9.000 Z105.500
N1250 G1 X9.000 Z103.500
N1260 G0 X10.000 Z104.500
N1270 G0 X10.000 Z105.500
N1280 G0 X7.000 Z105.500
N1290 G1 X7.000 Z103.500
N1300 G0 X8.000 Z104.500
N1310 G0 X8.000 Z105.500
N1320 G0 X5.000 Z105.500
N1330 G1 X5.000 Z103.500
N1340 G0 X6.000 Z104.500
N1350 G0 X6.000 Z105.500
N1360 G0 X3.000 Z105.500
N1370 G1 X3.000 Z103.500
N1380 G0 X4.000 Z104.500
N1390 G0 X4.000 Z105.500
N1400 G0 X2.000 Z105.500
N1410 G1 X1.000 Z103.500
N1420 G1 X29.000 Z103.500
N1430 G1 X34.000 Z100.500
N1440 G1 X34.000 Z82.500
N1450 G3 X45.000 Z77.000 I0.0 K-5.500
N1460 G1 X45.000 Z75.500
N1470 G1 X45.000 Z46.500
N1480 G1 X53.000 Z46.500
N1490 G1 X58.000 Z43.500
N1500 G1 X58.000 Z15.500
N1510 G2 X69.000 Z10.000 I5.500 K0.0
N1520 G1 X69.000 Z1.000
N1530 G0 X71.000 Z2.000
N1540 G0 X71.000 Z104.500
N1550 G0 X0.000 Z104.500
N1560 G1 X0.000 Z102.500
N1570 G1 X27.000 Z102.500
N1580 G1 X32.000 Z99.500
N1590 G1 X32.000 Z81.500
N1600 G3 X43.000 Z76.000 I0.0 K-5.500
N1610 G1 X43.000 Z74.500
N1620 G1 X43.000 Z45.500
N1630 G1 X51.000 Z45.500
N1640 G1 X56.000 Z42.500
N1650 G1 X56.000 Z14.500
N1660 G2 X67.000 Z9.000 I5.500 K0.0
N1670 G1 X67.000 Z0.000
N1680 G0 X71.000 Z2.000
N1690 G0 X71.000 Z104.500

($SetPartSize(160, 50, 10, 1) )
($FullScreen("XY") )
(Fräs 8)
N10  G92 Y8 
N20  G0 X-3 Y-11 T1 S12 F12 M03
N30  G1 Z-2.5
N40  G1 Y45
N50  G1 X163
N60  G1 Y-11
N70  G1 X-5
N80  S2000 M3 F400 T5
N90  G0 X48.3 Y34.3 Z1.4
N100  G1 Z-2.45
N110  G3 X46.9 Y29.4 I2.5102 J-3.367
N120  G3 X48.3 Y37.1 I1.4672 J3.7107
N130  G3 X25.9 Y12.6 I9.7643 J-31.4174
N140  G3 X39.9 Y.7 I9.3037 J-3.2396
N150  G2 X51.1 Y3.5 I25.9245 J-79.8994
N160  G2 X62.3 Y0 I3.2851 J-9.1588
N170  G2 X66.5 Y1.05 I5.4544 J-12.894
N180  G2 X76.3 Y-.7 I.6832 J-24.4902
N190  G3 X49 Y5.6 I-17.78 J-14.7469
N200  G2 X38.5 Y2.8 I-14.1589 J32.0082
N210  G2 X31.5 Y11.9 I-.3248 J6.9923
N220  G2 X46.9 Y34.3 I33.6511 J-6.6416
N230  G2 X48.3 Y34.3 I.7 J-.7826
N240  G0 Z1.4
N250  G0 X44.1 Y21
N260  G1 Z-2.45
N270  G3 X41.3 Y14 I8.392301 J-7.4172
N280  G3 X43.4 Y14 I1.05 J1.8186
N290  G3 X46.9 Y19.6 I-39.7075 J28.7112
N300  G2 X44.1 Y21 I0 J3.5
N310  G0 Z1.4
N320  G0 X47.6 Y21
N330  G1 Z-2.45
N340  G2 X46.2 Y25.2 I.9268 J2.6425
N350  G2 X48.3 Y24.5 I.7791 J-1.1634
N360  G2 X47.6 Y21 I-8.3986 J-.14
N370  G0 Z1.4
N380  G0 X49.7 Y21
N390  G1 Z-2.45
N400  G3 X50.4 Y25.9 I-3.8367 J3.0478
N410  G3 X44.8 Y27.3 I-3.2802 J-1.2208
N420  G3 X36.4 Y11.9 I12.551 J-16.8371
N430  G3 X42 Y9.8 I3.4384 J.6531
N440  G3 X49 Y18.9 I-16.5186 J19.9486
N450  G3 X51.1 Y19.6 I-.9114 J6.2335
N460  G3 X49.7 Y11.9 I5.8247 J-5.0365
N470  G3 X53.9 Y9.1 I3.7128 J1.0192
N480  G3 X60.2 Y13.3 I-4.3267 J13.3147
N490  G3 X67.2 Y11.2 I3.6841 J-.4354
N500  G3 X70 Y9.1 I2.0965 J-.1211
N510  G3 X78.4 Y18.9 I-12.6406 J19.3347
N520  G1 X77 Y19.6
N530  G2 X72.1 Y14 I-27.5814 J19.1898
N540  G1 X79.1 Y28
N550  G1 X74.2 Y28
N560  G1 X73.5 Y27.3
N570  G3 X70 Y27.3 I-1.75 J-3.031
N580  G3 X61.6 Y17.5 I10.1325 J-17.185
N590  G2 X55.3 Y12.6 I-12.9479 J10.1472
N600  G2 X54.6 Y14.7 I.4634 J1.3209
N610  G2 X60.9 Y25.55 I19.8457 J-4.2693
N620  G2 X61.6 Y25.2 I-.0854 J-1.0465
N630  G3 X60.2 Y21 I.9268 J-2.6425
N640  G3 X60.9 Y28 I-.5817 J3.5931
N650  G3 X53.2 Y22.4 I1.4224 J-10.0499
N660  G2 X49.7 Y21 I-6.6395 J11.5241
N670  G0 Z1.4
N680  G0 X72.8 Y25.2
N690  G1 Z-2.45
N700  G3 X65.8 Y14 I8.2978 J-12.9738
N710  G3 X72.8 Y25.2 I-15.2712 J17.332
N720  G0 Z1.4
N730  G0 X81.2 Y28
N740  G1 Z-2.45
N750  G1 X78.4 Y23.1
N760  G1 X83.3
N770  G1 X85.75 Y28
N780  G1 X81.2
N790  G0 Z1.4
N800  G0 X105.7 Y35.7
N810  G1 Z-2.45
N820  G3 X101.5 Y37.1 I-3.7268 J-4.1797
N830  G3 X79.1 Y10.5 I14.4732 J-34.9195
N840  G3 X81.2 Y1.4 I10.2137 J-2.4353
N850  G3 X89.6 Y1.4 I4.2 J5.6
N860  G3 X97.3 Y17.5 I-8.2397 J13.832
N870  G3 X91.7 Y18.2 I-3.2088 J-2.9218
N880  G3 X86.8 Y6.3 I8.3132 J-10.3817
N890  G2 X91.7 Y10.5 I17.3362 J-15.267
N900  G2 X94.5 Y16.1 I8.372 J-.686
N910  G2 X95.9 Y15.4 I.1806 J-1.3881
N920  G2 X86.8 Y3.5 I-13.2804 J.7258999
N930  G2 X84.7 Y6.3 I.35 J2.45
N940  G2 X102.9 Y34.3 I35.5565 J-3.1969
N950  G3 X96.6 Y23.1 I4.8454 J-10.0975
N960  G3 X100.1 Y21.7 I2.0937 J.1596
N970  G3 X106.4 Y33.6 I-9.7755 J12.7925
N980  G2 X113.4 Y32.2 I1.7101 J-9.6495
N990  G1 X118.3 Y28
N1000  G1 X121.8 Y32.2
N1010  G1 X117.6 Y35.7
N1020  G3 X105.7 Y35.7 I-5.95 J-11.8951
N1030  G0 Z1.4
N1040  G0 X104.3 Y32.9
N1050  G1 Z-2.45
N1060  G3 X98 Y23.8 I4.8559 J-10.0926
N1070  G3 X99.4 Y23.1 I1.5715 J1.393
N1080  G3 X104.3 Y32.9 I-7.6986 J9.974299
N1090  G0 Z1.4
N1100  G0 X109.9 Y11.9
N1110  G1 Z-2.45
N1120  G3 X110.6 Y16.8 I-59.1948 J10.9564
N1130  G3 X105.7 Y18.2 I-2.8903 J-.8407
N1140  G3 X96.6 Y3.5 I10.4069 J-16.6089
N1150  G3 X101.5 Y.7 I3.1444 J-.1848
N1160  G3 X109.2 Y9.8 I-14.2912 J19.9003
N1170  G3 X110.6 Y10.5 I-1.463 J4.6767
N1180  G3 X109.9 Y2.8 I7.077 J-4.5255
N1190  G3 X114.1 Y.7 I2.7825 J.3143
N1200  G3 X117.6 Y3.5 I-2.3926 J6.5786
N1210  G3 X120.4 Y0 I3.8444 J.2058
N1220  G3 X124.6 Y2.1 I-1.8319 J8.9138
N1230  G3 X126 Y0 I2.7797 J.3367
N1240  G3 X136.5 Y8.4 I-5.7841 J17.9928
N1250  G1 X134.4 Y9.8
N1260  G2 X129.5 Y4.2 I-27.5814 J19.1898
N1270  G1 X136.5 Y18.2
N1280  G1 X131.6
N1290  G1 X130.9 Y17.5
N1300  G3 X128.8 Y18.9 I-1.981 J-.6965
N1310  G3 X123.9 Y16.1 I8.75 J-21
N1320  G3 X119 Y9.1 I23.6957 J-21.8022
N1330  G2 X116.2 Y4.9 I-11.6711 J4.7474
N1340  G2 X114.8 Y5.6 I-.3871 J.9758
N1350  G2 X130.9 Y35 I56.8428 J-12.0197
N1360  G2 X131.6 Y35 I.35 J-.6062
N1370  G3 X132.3 Y33.6 I1.3881 J-.1806
N1380  G3 X130.2 Y37.1 I-1.4742 J1.4952
N1390  G3 X126 Y35 I1.8319 J-8.9138
N1400  G3 X112 Y12.6 I37.3135 J-38.8962
N1410  G2 X109.9 Y11.9 I-3.2354 J6.2069
N1420  G0 Z1.4
N1430  G0 X107.8 Y11.9
N1440  G1 Z-2.45
N1450  G3 X108.5 Y16.1 I-4.7593 J2.9512
N1460  G3 X106.4 Y15.4 I-.6216 J-1.6359
N1470  G3 X107.8 Y11.9 I2.6222 J-.9807
N1480  G0 Z1.4
N1490  G0 X107.1 Y9.8
N1500  G1 Z-2.45
N1510  G2 X104.3 Y11.9 I1.792 J5.3053
N1520  G3 X101.5 Y5.6 I9.0083 J-7.7756
N1530  G3 X103.6 Y4.9 I1.1039 J-.1876
N1540  G3 X107.1 Y9.8 I-38.0478 J30.877
N1550  G0 Z1.4
N1560  G0 X129.5 Y16.8
N1570  G1 Z-2.45
N1580  G3 X123.2 Y4.9 I8.7458 J-12.2479
N1590  G3 X129.5 Y16.8 I-14.4298 J15.2572
N1600  G0 Z1.4
N1610  G0 X-3 Y-11

($SetPartSize(100, 100, 50, 1) )
($FullScreen( "BLOCK") )
(This program was created by MicroTech CamModul)
%
N10 G00 Z5 M09
N20 G00 X-5 Y96.5 T1
N30 G01 Z-40 F200 S1000 M03 M08
N40 G01 X-0.571 F700
N50 G01 X-0.657 Y96.414
N60 G03 X-1.79 Y88 I4.95 J-4.95
N70 G01 X-5
N80 G01 Y79.5
N90 G01 X6.358
N100 G01 X14.858 Y71
N110 G01 X-5
N120 G01 Y62.5
N130 G01 X23.358
N140 G01 X26.727 Y59.131
N150 G03 X25.322 Y54 I23.273 J-9.131
N160 G01 X-5
N170 G01 Y45.5
N180 G01 X25.408
N190 G03 X26.727 Y40.869 I24.592 J4.5
N200 G01 X22.858 Y37
N210 G01 X-5
N220 G01 Y28.5
N230 G01 X14.358
N240 G01 X5.858 Y20
N250 G01 X-5
N260 G01 Y11.5
N270 G01 X-2.048
N280 G03 X-0.657 Y3.586 I6.341 J-2.964
N290 G01 X-0.071 Y3
N300 G01 X-5
N310 G01 Y-5
N320 G01 X105
N330 G01 Y3
N340 G01 X100.071
N350 G01 X96.414 Y-0.657
N360 G02 X86.515 I-4.95 J4.95
N370 G01 X82.858 Y3
N380 G01 X17.142
N390 G01 X25.642 Y11.5
N400 G01 X74.358
N410 G01 X65.858 Y20
N420 G01 X34.142
N430 G00 Z5 M09
N440 G00 X105 Y96.5
N450 G01 Z-40 F200 M08
N460 G01 X100.571 F700
N470 G01 X100.657 Y96.414
N480 G02 X101.79 Y88 I-4.95 J-4.95
N490 G01 X105
N500 G01 Y79.5
N510 G01 X93.642
N520 G01 X85.142 Y71
N530 G01 X105
N540 G01 Y62.5
N550 G01 X76.642
N560 G01 X73.273 Y59.131
N570 G02 X74.678 Y54 I-23.273 J-9.131
N580 G01 X105
N590 G01 Y45.5
N600 G01 X74.592
N610 G02 X73.273 Y40.869 I-24.592 J4.5
N620 G01 X77.142 Y37
N630 G01 X105
N640 G01 Y28.5
N650 G01 X85.642
N660 G01 X94.142 Y20
N670 G01 X105
N680 G01 Y11.5
N690 G01 X102.048
N700 G00 Z5 M09
N710 G00 X17.642 Y96.5
N720 G01 Z-40 F200 M08
N730 G01 X82.358 F700
N740 G01 X73.858 Y88
N750 G01 X26.142
N760 G01 X34.642 Y79.5
N770 G01 X65.358
N780 G00 Z5 M09
N790 G00 X-5 Y-5
N800 G01 Z-40 F200 M08
N810 G01 Y105 F700
N820 G01 X105
N830 G01 Y-5
N840 G01 X-5
N850 G00 Z5 M09
N860 G00 X-0.657 Y13.485
N870 G01 Z-40 F200 M08
N880 G01 X26.727 Y40.869 F700
N890 G02 Y59.131 I23.273 J9.131
N900 G01 X-0.657 Y86.515
N910 G02 Y96.414 I4.95 J4.95
N920 G01 X3.586 Y100.657
N930 G02 X13.485 I4.95 J-4.95
N940 G01 X40.869 Y73.273
N950 G02 X59.131 I9.131 J-23.273
N960 G01 X86.515 Y100.657
N970 G02 X96.414 I4.95 J-4.95
N980 G01 X100.657 Y96.414
N990 G02 Y86.515 I-4.95 J-4.95
N1000 G01 X73.273 Y59.131
N1010 G02 X75 Y50 I-23.273 J-9.131
N1020 G02 X73.273 Y40.869 I-25 J0
N1030 G01 X100.657 Y13.485
N1040 G02 Y3.586 I-4.95 J-4.95
N1050 G01 X96.414 Y-0.657
N1060 G02 X86.515 I-4.95 J4.95
N1070 G01 X59.131 Y26.727
N1080 G02 X40.869 I-9.131 J23.273
N1090 G01 X13.485 Y-0.657
N1100 G02 X3.586 I-4.95 J4.95
N1110 G01 X-0.657 Y3.586
N1120 G02 Y13.485 I4.95 J4.95
N1130 G00 Z5 M09
N1140 G00 X75 Y50
N1150 G01 Z-4 F200 M08
N1160 G03 I-25 J0 F700
N1170 G00 Z5 M09
N1180 G00 X60
N1190 G01 Z-45 F200 M08
N1200 G02 I-10 J0 F700
N1210 G02 X48.5 I-5.75 J0
N1220 G02 X51.5 I1.5 J0
N1230 G00 Z5 M09
($Message("Press Esc to return") )
N1280 M30

