($Message("IMPORTANT! Remember to load the corresponding machine settings file for the example. Use the [Files -> Load machine settings] to open machine settings file.") )

(Date:970317 Time:13:29)
(Part size X:100 Y:100 Z:50)
(Made by CamModul)
%
N10 G00 Z5 M09
N20 G00 X-5 Y96.5 T1
N30 G01 Z-40 F200 S1000 M03 M08
N40 G01 X-0.571 F700
N50 G01 X-0.657 Y96.414
N60 G03 X-1.79 Y88 I4.95 J-4.95
N70 G01 X-5
N80 G01 Y79.5
N90 G01 X6.358
N100 G01 X14.858 Y71
N110 G01 X-5
N120 G01 Y62.5
N130 G01 X23.358
N140 G01 X26.727 Y59.131
N150 G03 X25.322 Y54 I23.273 J-9.131
N160 G01 X-5
N170 G01 Y45.5
N180 G01 X25.408
N190 G03 X26.727 Y40.869 I24.592 J4.5
N200 G01 X22.858 Y37
N210 G01 X-5
N220 G01 Y28.5
N230 G01 X14.358
N240 G01 X5.858 Y20
N250 G01 X-5
N260 G01 Y11.5
N270 G01 X-2.048
N280 G03 X-0.657 Y3.586 I6.341 J-2.964
N290 G01 X-0.071 Y3
N300 G01 X-5
N310 G01 Y-5
N320 G01 X105
N330 G01 Y3
N340 G01 X100.071
N350 G01 X96.414 Y-0.657
N360 G02 X86.515 I-4.95 J4.95
N370 G01 X82.858 Y3
N380 G01 X17.142
N390 G01 X25.642 Y11.5
N400 G01 X74.358
N410 G01 X65.858 Y20
N420 G01 X34.142
N430 G00 Z5 M09
N440 G00 X105 Y96.5
N450 G01 Z-40 F200 M08
N460 G01 X100.571 F700
N470 G01 X100.657 Y96.414
N480 G02 X101.79 Y88 I-4.95 J-4.95
N490 G01 X105
N500 G01 Y79.5
N510 G01 X93.642
N520 G01 X85.142 Y71
N530 G01 X105
N540 G01 Y62.5
N550 G01 X76.642
N560 G01 X73.273 Y59.131
N570 G02 X74.678 Y54 I-23.273 J-9.131
N580 G01 X105
N590 G01 Y45.5
N600 G01 X74.592
N610 G02 X73.273 Y40.869 I-24.592 J4.5
N620 G01 X77.142 Y37
N630 G01 X105
N640 G01 Y28.5
N650 G01 X85.642
N660 G01 X94.142 Y20
N670 G01 X105
N680 G01 Y11.5
N690 G01 X102.048
N700 G00 Z5 M09
N710 G00 X17.642 Y96.5
N720 G01 Z-40 F200 M08
N730 G01 X82.358 F700
N740 G01 X73.858 Y88
N750 G01 X26.142
N760 G01 X34.642 Y79.5
N770 G01 X65.358
N780 G00 Z5 M09
N790 G00 X-5 Y-5
N800 G01 Z-40 F200 M08
N810 G01 Y105 F700
N820 G01 X105
N830 G01 Y-5
N840 G01 X-5
N850 G00 Z5 M09
N860 G00 X-0.657 Y13.485
N870 G01 Z-40 F200 M08
N880 G01 X26.727 Y40.869 F700
N890 G02 Y59.131 I23.273 J9.131
N900 G01 X-0.657 Y86.515
N910 G02 Y96.414 I4.95 J4.95
N920 G01 X3.586 Y100.657
N930 G02 X13.485 I4.95 J-4.95
N940 G01 X40.869 Y73.273
N950 G02 X59.131 I9.131 J-23.273
N960 G01 X86.515 Y100.657
N970 G02 X96.414 I4.95 J-4.95
N980 G01 X100.657 Y96.414
N990 G02 Y86.515 I-4.95 J-4.95
N1000 G01 X73.273 Y59.131
N1010 G02 X75 Y50 I-23.273 J-9.131
N1020 G02 X73.273 Y40.869 I-25 J0
N1030 G01 X100.657 Y13.485
N1040 G02 Y3.586 I-4.95 J-4.95
N1050 G01 X96.414 Y-0.657
N1060 G02 X86.515 I-4.95 J4.95
N1070 G01 X59.131 Y26.727
N1080 G02 X40.869 I-9.131 J23.273
N1090 G01 X13.485 Y-0.657
N1100 G02 X3.586 I-4.95 J4.95
N1110 G01 X-0.657 Y3.586
N1120 G02 Y13.485 I4.95 J4.95
N1130 G00 Z5 M09
N1140 G00 X75 Y50
N1150 G01 Z-4 F200 M08
N1160 G03 I-25 J0 F700
N1170 G00 Z5 M09
N1180 G00 X60
N1190 G01 Z-45 F200 M08
N1200 G02 I-10 J0 F700
N1210 G02 X48.5 I-5.75 J0
N1220 G02 X51.5 I1.5 J0
N1230 G00 Z5 M09
N1280 M30
