($Message("IMPORTANT! Remember to load the corresponding machine settings file for the example. Use the [Files -> Load machine settings] to open machine settings file.") )

%
(Made by CamModul)
G92 X60 Y40
N10 G00 Z2 M09
N20 G00 X-60 Y92 T1
N30 G01 Z-20 F100 S2500 M03 M08
N40 G01 X-27.673 F61
N50 G03 X-39.187 Y84 I30.373 J-56
N60 G01 X-60
N70 G01 Y76
N80 G01 X-46.883
N90 G03 X-52.386 Y68 I49.583 J-40
N100 G01 X-60
N110 G01 Y60
N120 G01 X-56.313
N130 G03 X-58.965 Y52 I59.013 J-24
N140 G01 X-60
N150 G01 Y44
N160 G01 X-60.502
N170 G03 X-61.006 Y36 I63.202 J-8
N180 G01 X-60
N190 G01 Y28
N200 G01 X-60.502
N210 G03 X-58.965 Y20 I63.202 J8
N220 G01 X-60
N230 G01 Y12
N240 G01 X-56.313
N250 G03 X-52.386 Y4 I59.013 J24
N260 G01 X-60
N270 G01 Y-4
N280 G01 X-46.883
N290 G03 X-40.726 Y-10.612 I49.583 J40
N300 G02 X-39.455 Y-12 I-8.112 J-8.707
N310 G01 X-60
N320 G01 Y-20
N330 G01 X-35.355
N340 G03 X-29.428 Y-28 I35.355 J20
N350 G01 X-60
N360 G01 Y-36
N370 G01 X-18.814
N380 G03 X-0.012 Y-40.62 I18.814 J36
N390 G03 X18.79 Y-36 I-0.012 J40.62
N400 G01 X60
N410 G01 Y-28
N420 G01 X29.404
N430 G03 X35.331 Y-20 I-29.428 J28
N440 G01 X60
N450 G01 Y-12
N460 G01 X39.431
N470 G00 Z2 M09
N480 G00 X60 Y92
N490 G01 Z-20 F100 M08
N500 G01 X27.649 F61
N510 G02 X39.163 Y84 I-30.373 J-56
N520 G01 X60
N530 G01 Y76
N540 G01 X46.859
N550 G02 X52.362 Y68 I-49.583 J-40
N560 G01 X60
N570 G01 Y60
N580 G01 X56.289
N590 G02 X58.941 Y52 I-59.013 J-24
N600 G01 X60
N610 G01 Y44
N620 G01 X60.478
N630 G02 X60.982 Y36 I-63.202 J-8
N640 G01 X60
N650 G01 Y28
N660 G01 X60.478
N670 G02 X58.941 Y20 I-63.202 J8
N680 G01 X60
N690 G01 Y12
N700 G01 X56.289
N710 G02 X52.362 Y4 I-59.013 J24
N720 G01 X60
N730 G01 Y-4
N740 G01 X46.859
N750 G00 Z2 M09
N760 G00 X-6.579 Y92
N770 G01 Z-20 F100 M08
N780 G01 X6.555 F61
N790 G03 X9.418 Y84 I7.021 J-2
N800 G01 X-9.442
N810 G02 X-10.643 Y83.326 I-4.158 J6
N820 G03 X-22.662 Y76 I21.943 J-49.526
N830 G01 X22.638
N840 G02 X30.684 Y68 I-33.962 J-42.2
N850 G01 X-30.708
N860 G03 X-36.112 Y60 I42.008 J-34.2
N870 G01 X36.088
N880 G02 X39.696 Y52 I-47.412 J-26.2
N890 G01 X-39.72
N900 G03 X-41.9 Y44 I51.02 J-18.2
N910 G01 X41.876
N920 G02 X42.8 Y36 I-53.2 J-10.2
N930 G01 X18.79
N940 G02 X29.404 Y28 I-18.814 J-36
N950 G01 X42.469
N960 G00 Z2 M09
N970 G00 X-42.824 Y36
N980 G01 Z-20 F100 M08
N990 G01 X-18.814 F61
N1000 G03 X-29.428 Y28 I18.814 J-36
N1010 G01 X-42.493
N1020 G00 Z2 M09
N1030 G00 X60 Y-40
N1040 G01 Z-20 F100 M08
N1050 G01 X-60 F61
N1060 G01 Y100
N1070 G01 X60
N1080 G01 Y-40
N1090 G00 Z2 M09
N1100 G00 X-0.012 Y-40.62
N1110 G01 Z-20 F100 M08
N1120 G02 X-37.772 Y-14.942 I0.012 J40.62 F61
N1130 G03 X-40.726 Y-10.612 I-11.066 J-4.377
N1140 G02 X-15.71 Y96.989 I43.426 J46.612
N1150 G02 X-10.643 Y83.326 I2.11 J-6.989
N1160 G03 X-42.699 Y29.516 I21.943 J-49.526
N1170 G03 X-31.645 Y25.467 I6.299 J0.084
N1180 G02 X-0.012 Y40.62 I31.645 J-25.467
N1190 G02 X31.621 Y25.467 I-0.012 J-40.62
N1200 G03 X42.675 Y29.516 I4.755 J4.133
N1210 G03 X10.619 Y83.326 I-53.999 J4.284
N1220 G02 X15.686 Y96.989 I2.957 J6.674
N1230 G02 X40.702 Y-10.612 I-18.41 J-60.989
N1240 G03 X37.748 Y-14.942 I8.112 J-8.707
N1250 G02 X-0.012 Y-40.62 I-37.772 J14.942
N1260 G00 Z2 M09
N1270 G00 X-23.224 Y0
N1280 G01 Z-20 F100 M08
N1290 G03 I23.2 J0 F61
N1300 G03 X15.176 I19.2 J0
N1310 G03 X-15.224 I-15.2 J0
N1320 G03 X7.176 I11.2 J0
N1330 G03 X-7.224 I-7.2 J0
N1340 G03 X-0.824 I3.2 J0
N1350 G00 Z2 M09
N1360 G00 X42.397 Y-16.781 T2
N1370 G01 Z-10 F100 M08
N1380 G02 X-0.012 Y-45.62 I-42.421 J16.781 F61
N1390 G02 X-42.421 Y-16.781 I0.012 J45.62
N1400 G02 X-35.603 Y28.524 I42.421 J16.781
N1410 G02 X-0.012 Y45.62 I35.603 J-28.524
N1420 G02 X35.579 Y28.524 I-0.012 J-45.62
N1430 G02 X42.397 Y-16.781 I-35.603 J-28.524
N1440 G01 X52 Y42
N1450 G01 X44 Y66
N1460 G01 X26 Y84
N1470 G01 X2 Y92
N1480 G01 X-16 Y88
N1490 G01 X-32 Y78
N1500 G01 X-46 Y62
N1510 G01 X-52 Y38
N1520 G01 X-50 Y18
N1530 G00 Z2 M09
N1540 M30
