($Message("IMPORTANT! Remember to load the corresponding machine settings file for the example. Use the [Files -> Load machine settings] to open machine settings file.") )

(Program made by TextMilling)
G00 X0.000 Y0.000 Z2.000
G00 X16.262 Y137.500 S2000.000 F300.000 T6
G01 Z-15.000 F200.000
G01 X27.426 Y137.500 F300.000
G01 X27.426 Y93.666
G01 X39.682 Y93.666
G01 X39.682 Y137.500
G01 X50.907 Y137.500
G01 X50.907 Y12.500
G01 X39.682 Y12.500
G01 X39.682 Y63.045
G01 X27.426 Y63.045
G01 X27.426 Y12.500
G01 X16.262 Y12.500
G01 X16.262 Y137.500
G00 Z2.000 F200.000
G00 X89.766 Y49.203 F300.000
G01 Z-15.000 F200.000
G01 X69.561 Y49.203 F300.000
G01 X69.804 Y44.169
G01 X70.290 Y39.975
G01 X70.882 Y36.668
G01 X71.988 Y33.473
G01 X73.263 Y31.376
G01 X74.720 Y30.747
G01 X75.690 Y30.956
G01 X76.660 Y32.005
G01 X77.561 Y33.342
G01 X78.117 Y34.732
G01 X78.723 Y36.619
G01 X79.330 Y39.136
G01 X89.220 Y35.990
G01 X87.582 Y27.810
G01 X85.762 Y21.099
G01 X83.730 Y16.351
G01 X81.272 Y13.129
G01 X78.177 Y11.032
G01 X74.505 Y10.403
G01 X71.260 Y11.032
G01 X68.530 Y12.710
G01 X66.293 Y15.484
G01 X64.404 Y19.631
G01 X62.766 Y24.874
G01 X61.334 Y31.625
G01 X60.217 Y39.346
G01 X59.611 Y48.154
G01 X59.368 Y57.632
G01 X59.793 Y70.805
G01 X61.128 Y82.341
G01 X63.310 Y92.049
G01 X66.285 Y99.329
G01 X69.925 Y103.733
G01 X74.196 Y105.201
G01 X77.692 Y104.572
G01 X80.665 Y102.685
G01 X83.094 Y99.311
G01 X85.094 Y94.715
G01 X86.732 Y89.052
G01 X88.061 Y82.237
G01 X89.038 Y73.951
G01 X89.584 Y64.304
G01 X89.766 Y53.129
G01 X89.766 Y49.203
G00 Z2.000 F200.000
G00 X79.573 Y65.772 F300.000
G01 Z-15.000 F200.000
G01 X79.269 Y71.854 F300.000
G01 X78.723 Y76.678
G01 X77.991 Y80.271
G01 X77.024 Y82.760
G01 X75.932 Y84.228
G01 X74.616 Y84.648
G01 X73.141 Y84.018
G01 X71.806 Y81.711
G01 X70.757 Y78.041
G01 X70.229 Y74.790
G01 X69.804 Y70.805
G01 X69.586 Y65.772
G01 X79.573 Y65.772
G00 Z2.000 F200.000
G00 X97.742 Y137.500 F300.000
G01 Z-15.000 F200.000
G01 X107.814 Y137.500 F300.000
G01 X107.814 Y12.500
G01 X97.742 Y12.500
G01 X97.742 Y137.500
G00 Z2.000 F200.000
G00 X117.549 Y137.500 F300.000
G01 Z-15.000 F200.000
G01 X127.621 Y137.500 F300.000
G01 X127.621 Y12.500
G01 X117.549 Y12.500
G01 X117.549 Y137.500
G00 Z2.000 F200.000
G00 X135.778 Y57.546 F300.000
G01 Z-15.000 F200.000
G01 X136.203 Y70.596 F300.000
G01 X137.598 Y81.921
G01 X139.823 Y91.751
G01 X142.816 Y99.119
G01 X146.457 Y103.733
G01 X150.751 Y105.201
G01 X155.558 Y103.523
G01 X159.563 Y98.280
G01 X162.641 Y89.403
G01 X164.417 Y80.243
G01 X165.509 Y69.757
G01 X165.873 Y58.058
G01 X165.448 Y45.008
G01 X164.113 Y33.473
G01 X161.864 Y23.768
G01 X158.834 Y16.275
G01 X155.133 Y11.871
G01 X150.776 Y10.403
G01 X146.821 Y11.661
G01 X143.423 Y15.436
G01 X140.564 Y21.505
G01 X137.902 Y31.586
G01 X136.324 Y43.540
G01 X135.778 Y57.546
G00 Z2.000 F200.000
G00 X145.850 Y57.635 F300.000
G01 Z-15.000 F200.000
G01 X146.032 Y50.252 F300.000
G01 X146.457 Y44.169
G01 X147.270 Y39.700
G01 X148.277 Y36.409
G01 X149.491 Y34.522
G01 X150.838 Y33.893
G01 X152.221 Y34.522
G01 X153.374 Y36.409
G01 X154.406 Y39.614
G01 X155.194 Y44.169
G01 X155.619 Y50.252
G01 X155.801 Y57.976
G01 X155.619 Y65.143
G01 X155.194 Y71.015
G01 X154.393 Y75.528
G01 X153.374 Y78.775
G01 X152.221 Y80.663
G01 X150.912 Y81.292
G01 X149.551 Y80.663
G01 X148.338 Y78.775
G01 X147.282 Y75.442
G01 X146.457 Y70.805
G01 X146.032 Y64.933
G01 X145.850 Y57.635
G00 Z2.000 F200.000
G00 X173.787 Y137.500 F300.000
G01 Z-15.000 F200.000
G01 X184.527 Y137.500 F300.000
G01 X184.527 Y108.993
G01 X182.436 Y51.720
G01 X175.804 Y51.720
G01 X173.787 Y108.993
G01 X173.787 Y137.500
G00 Z2.000 F200.000
G00 X174.151 Y43.121 F300.000
G01 Z-15.000 F200.000
G01 X184.163 Y43.121 F300.000
G01 X184.163 Y12.500
G01 X174.151 Y12.500
G01 X174.151 Y43.121
G00 Z2.000 F200.000
G00 X0.000 Y0.000 Z2.000
M30

