($Message("IMPORTANT! Remember to load the corresponding machine settings file for the example. Use the [Files -> Load machine settings] to open machine settings file.") )

%123
N10 G00 Z2 M09
N20 G00 X-5 Y127 T1
N30 G01 Z-45 F100 S2500 M03 M08
N40 G01 X25.284 F61
N50 G01 X19.57 Y119
N60 G01 X-5
N70 G01 Y111
N80 G01 X13.855
N90 G01 X8.141 Y103
N100 G01 X-5
N110 G01 Y95
N120 G01 X2.427
N130 G01 X0 Y91.602
N140 G01 Y87
N150 G01 X-5
N160 G01 Y79
N170 G01 X0
N180 G01 Y71
N190 G01 X-5
N200 G01 Y63
N210 G01 X0
N220 G01 Y55
N230 G01 X-5
N240 G01 Y47
N250 G01 X0
N260 G01 Y39
N270 G01 X-5
N280 G01 Y31
N290 G01 X3.417
N300 G01 X6.846 Y23
N310 G01 X-5
N320 G01 Y15
N330 G01 X10.274
N340 G01 X13.703 Y7
N350 G01 X-5
N360 G01 Y-1
N370 G01 X145
N380 G01 Y7
N390 G01 X95.537
N400 G00 Z2 M09
N410 G00 X145 Y127
N420 G01 Z-45 F100 M08
N430 G01 X44.128 F61
N440 G01 Y119
N450 G01 X55
N460 G01 Y111
N470 G01 X35.101
N480 G00 Z2 M09
N490 G00 X145 Y119
N500 G01 Z-45 F100 M08
N510 G01 X111.841 F61
N520 G02 X112.5 Y115.429 I-9.341 J-3.571
N530 G01 Y111
N540 G01 X145
N550 G01 Y103
N560 G01 X112.5
N570 G01 Y95
N580 G01 X145
N590 G01 Y87
N600 G01 X112.5
N610 G01 Y79.187
N620 G02 X113.307 Y79 I-7.5 J-34.187
N630 G01 X145
N640 G01 Y71
N650 G01 X128.431
N660 G02 X135.017 Y63 I-23.431 J-26
N670 G01 X145
N680 G01 Y55
N690 G01 X138.541
N700 G02 X139.943 Y47 I-33.541 J-10
N710 G01 X145
N720 G01 Y39
N730 G01 X139.482
N740 G02 X137.078 Y31 I-34.482 J6
N750 G01 X145
N760 G01 Y23
N770 G01 X132.221
N780 G02 X123.028 Y15 I-27.221 J22
N790 G01 X145
N800 G00 Z2 M09
N810 G00 X91.929 Y119
N820 G01 Z-45 F100 M08
N830 G01 X75 F61
N840 G01 Y111
N850 G01 X83.929
N860 G00 Z2 M09
N870 G00 X145 Y-5
N880 G01 Z-45 F100 M08
N890 G01 X-5 F61
N900 G01 Y135
N910 G01 X145
N920 G01 Y-5
N930 G00 Z2 M09
N940 G00 X89.663 Y0
N950 G01 Z-45 F100 M08
N960 G01 X98.556 Y10.598 F61
N970 G03 X112.5 Y79.187 I6.444 J34.402
N980 G01 Y115.429
N990 G03 X95.429 Y122.5 I-10 J0
N1000 G01 X82.929 Y110
N1010 G01 X75
N1020 G01 Y125
N1030 G01 X55
N1040 G01 Y110
N1050 G01 X45
N1060 G02 X44.128 Y112.821 I-5 J0
N1070 G01 Y130
N1080 G01 X27.427
N1090 G01 X0 Y91.602
N1100 G01 Y38.974
N1110 G01 X16.703 Y0
N1120 G01 X89.663
N1130 G00 Z2 M09
N1140 G00 X22.787 Y102.858 T4
N1150 G01 Z-20 F100 M08
N1160 G01 X24.573 F61
N1170 G03 X26.743 Y99.358 I15.427 J7.142
N1180 G01 X20.287
N1190 G01 X17.787 Y95.858
N1200 G01 X30.566
N1210 G03 X49.434 I9.434 J14.142
N1220 G01 X100.5
N1230 G01 Y92.358
N1240 G01 X15.287
N1250 G01 X12.787 Y88.858
N1260 G01 X100.5
N1270 G01 Y85.358
N1280 G01 X66.059
N1290 G02 X69.847 Y81.858 I-6.059 J-10.358
N1300 G01 X100.5
N1310 G01 Y78.358
N1320 G01 X71.521
N1330 G02 X72 Y75 I-11.521 J-3.358
N1340 G02 X71.999 Y74.858 I-12 J0
N1350 G01 X93.489
N1360 G03 X86.854 Y71.358 I11.511 J-29.858
N1370 G01 X71.434
N1380 G02 X69.643 Y67.858 I-11.434 J3.642
N1390 G01 X82.605
N1400 G03 X79.519 Y64.358 I22.395 J-22.858
N1410 G01 X65.545
N1420 G02 X54.455 I-5.545 J10.642
N1430 G01 X34.137
N1440 G02 X39.979 Y60.858 I-1.637 J-9.358
N1450 G01 X77.206
N1460 G03 X75.482 Y57.358 I27.794 J-15.858
N1470 G01 X41.703
N1480 G02 X42 Y55 I-9.203 J-2.358
N1490 G01 Y53.858
N1500 G01 X74.25
N1510 G03 X73.452 Y50.358 I30.75 J-8.858
N1520 G01 X42
N1530 G01 Y46.858
N1540 G01 X73.054
N1550 G03 X73.042 Y43.358 I31.946 J-1.858
N1560 G01 X42
N1570 G01 Y39.858
N1580 G01 X73.416
N1590 G03 X74.189 Y36.358 I31.584 J5.142
N1600 G01 X42
N1610 G01 Y35
N1620 G03 X42.9 Y32.858 I3 J0
N1630 G01 X75.393
N1640 G03 X77.084 Y29.358 I29.607 J12.142
N1650 G01 X55.478
N1660 G02 X56.947 Y25.858 I-5.478 J-4.358
N1670 G01 X79.357
N1680 G03 X82.387 Y22.358 I25.643 J19.142
N1690 G01 X57
N1700 G01 Y19.172
N1710 G01 X56.686 Y18.858
N1720 G01 X86.545
N1730 G03 X88.667 Y17.482 I18.455 J26.142
N1740 G01 X86.885 Y15.358
N1750 G01 X53.186
N1760 G01 X50.828 Y13
N1770 G01 X33.09
N1780 G02 X27.851 Y15.358 I0 J7
N1790 G01 X23.177
N1800 G01 X21.677 Y18.858
N1810 G01 X25.835
N1820 G01 X24.085 Y22.358
N1830 G01 X20.177
N1840 G01 X18.677 Y25.858
N1850 G01 X23
N1860 G01 Y29.358
N1870 G01 X17.177
N1880 G01 X15.677 Y32.858
N1890 G01 X23
N1900 G01 Y36.358
N1910 G01 X14.177
N1920 G01 X12.677 Y39.858
N1930 G01 X23
N1940 G01 Y43.358
N1950 G01 X12
N1960 G01 Y46.858
N1970 G01 X23
N1980 G01 Y50.358
N1990 G01 X12
N2000 G01 Y53.858
N2010 G01 X23
N2020 G01 Y55
N2030 G02 X23.297 Y57.358 I9.5 J0
N2040 G01 X12
N2050 G01 Y60.858
N2060 G01 X25.021
N2070 G02 X30.863 Y64.358 I7.479 J-5.858
N2080 G01 X12
N2090 G01 Y67.858
N2100 G01 X50.357
N2110 G02 X48.566 Y71.358 I9.643 J7.142
N2120 G01 X12
N2130 G01 Y74.858
N2140 G01 X48.001
N2150 G02 X48.479 Y78.358 I11.999 J0.142
N2160 G01 X12
N2170 G01 Y81.858
N2180 G01 X50.153
N2190 G02 X53.941 Y85.358 I9.847 J-6.858
N2200 G01 X12
N2210 G00 Z2 M09
N2220 G00 X92.757 Y102.858
N2230 G01 Z-20 F100 M08
N2240 G01 X100.5 F61
N2250 G01 Y99.358
N2260 G01 X89.257
N2270 G00 Z2 M09
N2280 G00 X84.067 Y12
N2290 G01 Z-20 F100 M08
N2300 G01 X24.616 F61
N2310 G01 X12 Y41.437
N2320 G01 Y87.757
N2330 G01 X23.929 Y104.457
N2340 G03 X52.042 Y98 I16.071 J5.543
N2350 G01 X87.899
N2360 G01 X95.379 Y105.479
N2370 G02 X100.5 Y103.358 I2.121 J-2.121
N2380 G01 Y76.682
N2390 G03 X88.667 Y17.482 I4.5 J-31.682
N2400 G01 X84.067 Y12
N2410 G00 Z2 M09
N2420 G00 X72 Y75
N2430 G01 Z-20 F100 M08
N2440 G02 I-12 J0 F61
N2450 G00 Z2 M09
N2460 G00 X42 Y35
N2470 G01 Z-20 F100 M08
N2480 G01 Y55 F61
N2490 G03 X23 I-9.5 J0
N2500 G01 Y24.528
N2510 G01 X26.829 Y16.87
N2520 G03 X33.09 Y13 I6.261 J3.13
N2530 G01 X50.828
N2540 G01 X57 Y19.172
N2550 G01 Y25
N2560 G03 X50 Y32 I-7 J0
N2570 G01 X45
N2580 G02 X42 Y35 I0 J3
N2590 G00 Z2 M09
N2600 G00 X125 Y45 T1
N2610 G01 Z-30 F100 M08
N2620 G02 I-20 J0 F61
N2630 G02 X93 I-16 J0
N2640 G02 X117 I12 J0
N2650 G02 X101 I-8 J0
N2660 G02 X109 I4 J0
N2670 G00 Z2 M09
N2680 G00 X60 Y75
N2690 G00
N2700 G81 Z-30 M08
N2710 G00 X200 Y200
N2720 M30
