($Message("IMPORTANT! Remember to load the corresponding machine settings file for the example. Use the [Files -> Load machine settings] to open machine settings file.") )

(Date:970317 Time:13:53)
(Part size X:110 Y:110 Z:43)
(Made by CamModul)
%
N10 G00 Z5 M09
N20 G00 X128 Y55 T2
N30 G01 Z-45 F200 S1000 M03 M08
N40 G02 I-73 J0 F700
N50 G00 Z5 M09
N60 G00 X120
N70 G01 Z-45 F200 M08
N80 G02 I-65 J0 F700
N90 G00 Z5 M09
N100 G00 X85.786 Y106.5 T1
N110 G01 Z-40 F200 M08
N120 G01 X67.864 F700
N130 G02 X65.498 Y98 I-6.419 J-2.792
N140 G01 X72.068
N150 G03 X58.376 Y89.5 I8.395 J-28.802
N160 G01 X53.425
N170 G03 X51.261 Y81 I13.829 J-8.047
N180 G01 X52.882
N190 G00 Z5 M09
N200 G00 X24.214 Y106.5
N210 G01 Z-40 F200 M08
N220 G01 X50.742 F700
N230 G03 X42.23 Y98 I16.513 J-25.047
N240 G01 X38.582
N250 G02 X36.996 Y93.754 I-6.997 J0.194
N260 G03 X34.491 Y89.5 I12.369 J-10.149
N270 G01 X38.354
N280 G03 X37.258 Y81 I28.901 J-8.047
N290 G01 X33.578
N300 G00 Z5 M09
N310 G00 X96.845 Y98
N320 G01 Z-40 F200 M08
N330 G01 X88.857 F700
N340 G02 X91.395 Y97.136 I-8.395 J-28.802
N350 G02 X95.754 Y89.5 I-2.551 J-6.519
N360 G01 X104.089
N370 G02 X109.074 Y81 I-49.089 J-34.5
N380 G01 X89.507
N390 G02 X105.389 Y72.5 I-5.562 J-29.48
N400 G01 X112.391
N410 G02 X114.321 Y64 I-57.391 J-17.5
N420 G01 X110.315
N430 G02 X97.42 Y60.147 I-7 J-0.078
N440 G03 X93.958 Y64 I-13.475 J-8.627
N450 G01 X84.672
N460 G02 X98.434 Y55.5 I-8.3 J-28.829
N470 G01 X114.998
N480 G02 X115 Y55 I-59.998 J-0.5
N490 G02 X114.464 Y47 I-60 J0
N500 G01 X103.941
N510 G02 X106.187 Y38.5 I-27.569 J-11.829
N520 G01 X112.687
N530 G02 X109.544 Y30 I-57.687 J16.5
N540 G01 X105.199
N550 G02 X93.465 I-5.867 J3.819
N560 G01 X90.418
N570 G02 X90.233 Y21.5 I-29.783 J-3.604
N580 G01 X104.777
N590 G02 X97.849 Y13 I-49.777 J33.5
N600 G01 X87.478
N610 G02 X83.827 Y7.366 I-26.843 J13.396
N620 G02 X71.518 Y13 I-5.411 J4.44
N630 G01 X68.403
N640 G02 X60.684 Y4.5 I-25.657 J15.547
N650 G01 X87.4
N660 G02 X65.909 Y-4 I-32.4 J50.5
N670 G01 X44.091
N680 G02 X22.6 Y4.5 I10.909 J59
N690 G01 X41.788
N700 G02 X46.553 Y13 I6.767 J1.792
N710 G01 X40.81
N720 G03 X52.503 Y21.5 I-11.273 J27.802
N730 G01 X57.111
N740 G03 X58.68 Y30 I-14.365 J7.047
N750 G01 X57.525
N760 G00 Z5 M09
N770 G00 X13.155 Y98
N780 G01 Z-40 F200 M08
N790 G01 X23.045 F700
N800 G03 X19.95 Y89.5 I26.32 J-14.396
N810 G01 X5.911
N820 G03 X0.926 Y81 I49.089 J-34.5
N830 G01 X5.59
N840 G02 X15.745 I5.078 J-4.819
N850 G01 X19.478
N860 G03 X21.496 Y72.5 I29.887 J2.604
N870 G01 X17.798
N880 G03 X21.85 Y64 I15.83 J2.329
N890 G01 X26.656
N900 G00 Z5 M09
N910 G00 X69.659 Y81
N920 G01 Z-40 F200 M08
N930 G01 X78.384 F700
N940 G00 Z5 M09
N950 G00 X-2.391 Y72.5
N960 G01 Z-40 F200 M08
N970 G01 X3.719 F700
N980 G03 X5.651 Y64 I29.909 J2.329
N990 G01 X-4.321
N1000 G03 X-4.998 Y55.5 I59.321 J-9
N1010 G01 X10.685
N1020 G03 X22.423 Y47 I22.943 J19.329
N1030 G01 X14.909
N1040 G00 Z5 M09
N1050 G00 X-4.464
N1060 G01 Z-40 F200 M08
N1070 G01 X-0.255 F700
N1080 G03 X0.789 Y42.304 I6.939 J-0.922
N1090 G03 X3.676 Y38.5 I25.265 J16.176
N1100 G01 X-2.687
N1110 G03 X0.456 Y30 I57.687 J16.5
N1120 G01 X16.626
N1130 G03 X35.483 I9.428 J28.48
N1140 G01 X41.341
N1150 G02 X23.707 Y25.902 I-11.804 J10.802
N1160 G03 X14.484 Y21.5 I-2.551 J-6.519
N1170 G01 X5.223
N1180 G03 X12.151 Y13 I49.777 J33.5
N1190 G01 X18.282
N1200 G00 Z5 M09
N1210 G00 X82.44 Y47
N1220 G01 Z-40 F200 M08
N1230 G01 X87.146 F700
N1240 G02 X92.022 Y38.5 I-10.774 J-11.829
N1250 G01 X88.085
N1260 G00 Z5 M09
N1270 G00 X76.224 Y30
N1280 G01 Z-40 F200 M08
N1290 G01 X72.711 F700
N1300 G02 X71.906 Y21.5 I-29.965 J-1.453
N1310 G01 X75.868
N1320 G00 Z5 M09
N1330 G00 X115 Y55
N1340 G01 Z-40 F200 M08
N1350 G02 I-60 J0 F700
N1360 G00 Z5 M09
N1370 G00 X79.446 Y49.766
N1380 G01 Z-40 F200 M08
N1390 G02 X83.827 Y7.366 I-18.811 J-23.37 F700
N1400 G02 X73.004 Y16.246 I-5.411 J4.44
N1410 G03 X72.492 Y37.139 I-12.369 J10.149
N1420 G02 X71.701 Y36.396 I-17.492 J17.861
N1430 G02 X50.323 Y-0.481 I-28.955 J-7.85
N1440 G02 X46.787 Y13.065 I-1.768 J6.773
N1450 G03 X58.653 Y30.268 I-4.041 J15.481
N1460 G02 X57.576 Y30.133 I-3.653 J24.732
N1470 G02 X18.605 Y12.864 I-28.039 J10.668
N1480 G02 X23.707 Y25.902 I2.551 J6.519
N1490 G03 X43.418 Y32.845 I5.83 J14.9
N1500 G02 X42.468 Y33.368 I11.582 J22.155
N1510 G02 X0.789 Y42.304 I-16.413 J25.112
N1520 G02 X12.58 Y49.853 I5.895 J3.774
N1530 G03 X32.608 Y43.883 I13.475 J8.627
N1540 G02 X32.146 Y44.866 I22.392 J11.117
N1550 G02 X3.68 Y76.593 I1.482 J29.963
N1560 G02 X17.656 Y75.77 I6.988 J-0.412
N1570 G03 X30.35 Y59.168 I15.972 J-0.941
N1580 G02 X30.554 Y60.234 I24.65 J-4.168
N1590 G02 X26.173 Y102.634 I18.811 J23.37
N1600 G02 X36.996 Y93.754 I5.411 J-4.44
N1610 G03 X37.508 Y72.861 I12.369 J-10.149
N1620 G02 X38.299 Y73.604 I17.492 J-17.861
N1630 G02 X59.677 Y110.481 I28.955 J7.85
N1640 G02 X63.213 Y96.935 I1.768 J-6.773
N1650 G03 X51.347 Y79.732 I4.041 J-15.481
N1660 G02 X52.424 Y79.867 I3.653 J-24.732
N1670 G02 X91.395 Y97.136 I28.039 J-10.668
N1680 G02 X86.293 Y84.098 I-2.551 J-6.519
N1690 G03 X66.582 Y77.155 I-5.83 J-14.9
N1700 G02 X67.532 Y76.632 I-11.582 J-22.155
N1710 G02 X109.211 Y67.696 I16.413 J-25.112
N1720 G02 X97.42 Y60.147 I-5.895 J-3.774
N1730 G03 X77.392 Y66.117 I-13.475 J-8.627
N1740 G02 X77.854 Y65.134 I-22.392 J-11.117
N1750 G02 X106.32 Y33.407 I-1.482 J-29.963
N1760 G02 X92.344 Y34.23 I-6.988 J0.412
N1770 G03 X79.65 Y50.832 I-15.972 J0.941
N1780 G02 X79.446 Y49.766 I-24.65 J4.168
N1790 G00 Z5 M09
N1800 G00 X65 Y55
N1810 G01 Z-20 F200 M08
N1820 G02 I-10 J0 F700
N1830 G02 X53.5 I-5.75 J0
N1840 G02 X56.5 I1.5 J0
N1850 G00 Z5 M09
N1860 G00 X55
N1870 G81 Z-40 M08
N1880 M30
