($Message("IMPORTANT! Remember to load the corresponding machine settings file for the example. Use the [Files -> Load machine settings] to open machine settings file.") )

N10  G92 Y8 
N20  G0 X-3 Y-11 T1 S12 F12 M03
N30  G1 Z-2.5
N40  G1 Y45
N50  G1 X163
N60  G1 Y-11
N70  G1 X-5
N80  S2000 M3 F400 T5
N90  G0 X48.3 Y34.3 Z1.4
N100  G1 Z-2.45
N110  G3 X46.9 Y29.4 I2.5102 J-3.367
N120  G3 X48.3 Y37.1 I1.4672 J3.7107
N130  G3 X25.9 Y12.6 I9.7643 J-31.4174
N140  G3 X39.9 Y.7 I9.3037 J-3.2396
N150  G2 X51.1 Y3.5 I25.9245 J-79.8994
N160  G2 X62.3 Y0 I3.2851 J-9.1588
N170  G2 X66.5 Y1.05 I5.4544 J-12.894
N180  G2 X76.3 Y-.7 I.6832 J-24.4902
N190  G3 X49 Y5.6 I-17.78 J-14.7469
N200  G2 X38.5 Y2.8 I-14.1589 J32.0082
N210  G2 X31.5 Y11.9 I-.3248 J6.9923
N220  G2 X46.9 Y34.3 I33.6511 J-6.6416
N230  G2 X48.3 Y34.3 I.7 J-.7826
N240  G0 Z1.4
N250  G0 X44.1 Y21
N260  G1 Z-2.45
N270  G3 X41.3 Y14 I8.392301 J-7.4172
N280  G3 X43.4 Y14 I1.05 J1.8186
N290  G3 X46.9 Y19.6 I-39.7075 J28.7112
N300  G2 X44.1 Y21 I0 J3.5
N310  G0 Z1.4
N320  G0 X47.6 Y21
N330  G1 Z-2.45
N340  G2 X46.2 Y25.2 I.9268 J2.6425
N350  G2 X48.3 Y24.5 I.7791 J-1.1634
N360  G2 X47.6 Y21 I-8.3986 J-.14
N370  G0 Z1.4
N380  G0 X49.7 Y21
N390  G1 Z-2.45
N400  G3 X50.4 Y25.9 I-3.8367 J3.0478
N410  G3 X44.8 Y27.3 I-3.2802 J-1.2208
N420  G3 X36.4 Y11.9 I12.551 J-16.8371
N430  G3 X42 Y9.8 I3.4384 J.6531
N440  G3 X49 Y18.9 I-16.5186 J19.9486
N450  G3 X51.1 Y19.6 I-.9114 J6.2335
N460  G3 X49.7 Y11.9 I5.8247 J-5.0365
N470  G3 X53.9 Y9.1 I3.7128 J1.0192
N480  G3 X60.2 Y13.3 I-4.3267 J13.3147
N490  G3 X67.2 Y11.2 I3.6841 J-.4354
N500  G3 X70 Y9.1 I2.0965 J-.1211
N510  G3 X78.4 Y18.9 I-12.6406 J19.3347
N520  G1 X77 Y19.6
N530  G2 X72.1 Y14 I-27.5814 J19.1898
N540  G1 X79.1 Y28
N550  G1 X74.2 Y28
N560  G1 X73.5 Y27.3
N570  G3 X70 Y27.3 I-1.75 J-3.031
N580  G3 X61.6 Y17.5 I10.1325 J-17.185
N590  G2 X55.3 Y12.6 I-12.9479 J10.1472
N600  G2 X54.6 Y14.7 I.4634 J1.3209
N610  G2 X60.9 Y25.55 I19.8457 J-4.2693
N620  G2 X61.6 Y25.2 I-.0854 J-1.0465
N630  G3 X60.2 Y21 I.9268 J-2.6425
N640  G3 X60.9 Y28 I-.5817 J3.5931
N650  G3 X53.2 Y22.4 I1.4224 J-10.0499
N660  G2 X49.7 Y21 I-6.6395 J11.5241
N670  G0 Z1.4
N680  G0 X72.8 Y25.2
N690  G1 Z-2.45
N700  G3 X65.8 Y14 I8.2978 J-12.9738
N710  G3 X72.8 Y25.2 I-15.2712 J17.332
N720  G0 Z1.4
N730  G0 X81.2 Y28
N740  G1 Z-2.45
N750  G1 X78.4 Y23.1
N760  G1 X83.3
N770  G1 X85.75 Y28
N780  G1 X81.2
N790  G0 Z1.4
N800  G0 X105.7 Y35.7
N810  G1 Z-2.45
N820  G3 X101.5 Y37.1 I-3.7268 J-4.1797
N830  G3 X79.1 Y10.5 I14.4732 J-34.9195
N840  G3 X81.2 Y1.4 I10.2137 J-2.4353
N850  G3 X89.6 Y1.4 I4.2 J5.6
N860  G3 X97.3 Y17.5 I-8.2397 J13.832
N870  G3 X91.7 Y18.2 I-3.2088 J-2.9218
N880  G3 X86.8 Y6.3 I8.3132 J-10.3817
N890  G2 X91.7 Y10.5 I17.3362 J-15.267
N900  G2 X94.5 Y16.1 I8.372 J-.686
N910  G2 X95.9 Y15.4 I.1806 J-1.3881
N920  G2 X86.8 Y3.5 I-13.2804 J.7258999
N930  G2 X84.7 Y6.3 I.35 J2.45
N940  G2 X102.9 Y34.3 I35.5565 J-3.1969
N950  G3 X96.6 Y23.1 I4.8454 J-10.0975
N960  G3 X100.1 Y21.7 I2.0937 J.1596
N970  G3 X106.4 Y33.6 I-9.7755 J12.7925
N980  G2 X113.4 Y32.2 I1.7101 J-9.6495
N990  G1 X118.3 Y28
N1000  G1 X121.8 Y32.2
N1010  G1 X117.6 Y35.7
N1020  G3 X105.7 Y35.7 I-5.95 J-11.8951
N1030  G0 Z1.4
N1040  G0 X104.3 Y32.9
N1050  G1 Z-2.45
N1060  G3 X98 Y23.8 I4.8559 J-10.0926
N1070  G3 X99.4 Y23.1 I1.5715 J1.393
N1080  G3 X104.3 Y32.9 I-7.6986 J9.974299
N1090  G0 Z1.4
N1100  G0 X109.9 Y11.9
N1110  G1 Z-2.45
N1120  G3 X110.6 Y16.8 I-59.1948 J10.9564
N1130  G3 X105.7 Y18.2 I-2.8903 J-.8407
N1140  G3 X96.6 Y3.5 I10.4069 J-16.6089
N1150  G3 X101.5 Y.7 I3.1444 J-.1848
N1160  G3 X109.2 Y9.8 I-14.2912 J19.9003
N1170  G3 X110.6 Y10.5 I-1.463 J4.6767
N1180  G3 X109.9 Y2.8 I7.077 J-4.5255
N1190  G3 X114.1 Y.7 I2.7825 J.3143
N1200  G3 X117.6 Y3.5 I-2.3926 J6.5786
N1210  G3 X120.4 Y0 I3.8444 J.2058
N1220  G3 X124.6 Y2.1 I-1.8319 J8.9138
N1230  G3 X126 Y0 I2.7797 J.3367
N1240  G3 X136.5 Y8.4 I-5.7841 J17.9928
N1250  G1 X134.4 Y9.8
N1260  G2 X129.5 Y4.2 I-27.5814 J19.1898
N1270  G1 X136.5 Y18.2
N1280  G1 X131.6
N1290  G1 X130.9 Y17.5
N1300  G3 X128.8 Y18.9 I-1.981 J-.6965
N1310  G3 X123.9 Y16.1 I8.75 J-21
N1320  G3 X119 Y9.1 I23.6957 J-21.8022
N1330  G2 X116.2 Y4.9 I-11.6711 J4.7474
N1340  G2 X114.8 Y5.6 I-.3871 J.9758
N1350  G2 X130.9 Y35 I56.8428 J-12.0197
N1360  G2 X131.6 Y35 I.35 J-.6062
N1370  G3 X132.3 Y33.6 I1.3881 J-.1806
N1380  G3 X130.2 Y37.1 I-1.4742 J1.4952
N1390  G3 X126 Y35 I1.8319 J-8.9138
N1400  G3 X112 Y12.6 I37.3135 J-38.8962
N1410  G2 X109.9 Y11.9 I-3.2354 J6.2069
N1420  G0 Z1.4
N1430  G0 X107.8 Y11.9
N1440  G1 Z-2.45
N1450  G3 X108.5 Y16.1 I-4.7593 J2.9512
N1460  G3 X106.4 Y15.4 I-.6216 J-1.6359
N1470  G3 X107.8 Y11.9 I2.6222 J-.9807
N1480  G0 Z1.4
N1490  G0 X107.1 Y9.8
N1500  G1 Z-2.45
N1510  G2 X104.3 Y11.9 I1.792 J5.3053
N1520  G3 X101.5 Y5.6 I9.0083 J-7.7756
N1530  G3 X103.6 Y4.9 I1.1039 J-.1876
N1540  G3 X107.1 Y9.8 I-38.0478 J30.877
N1550  G0 Z1.4
N1560  G0 X129.5 Y16.8
N1570  G1 Z-2.45
N1580  G3 X123.2 Y4.9 I8.7458 J-12.2479
N1590  G3 X129.5 Y16.8 I-14.4298 J15.2572
N1600  G0 Z1.4
N1610  G0 X-3 Y-11
N1620  M30
