($Message("IMPORTANT! Remember to load the corresponding machine settings file for the example. Use the [Files -> Load machine settings] to open machine settings file.") )

G92 X40 Y40 T1 (dia 10mm)
G01 Y127 X-11.5
G01 Z-20
G01 X13.5
G01 Y80
G01 X22 Y70
G01 Y-3
G01 X-20
G01 Y70
G01 X-12 Y80
G01 Y127

N20  G00 Z20
N30  G00 Y120
N40  G00 X-9.449 Y120.5 T4 (dia 4mm)
N50  G01 Z-20 F200 S150
N60  G02 X9.449 Z-20 I9.449 K0
N70  G01 X9.5 Y120
N80  G01 Y118.5
N90  G03 X-9.5 I-9.5 K0
N100  G01 Y116.5
N110  G02 X9.5 Z-20 I9.5 K0
N120  G01 Y114.5
N130  G03 X-9.5 I-9.5 K0
N140  G01 Y112.5
N150  G02 X9.5 Z-20 I9.5 K0
N160  G01 Y110.5
N170  G03 X-9.5 I-9.5 K0
N180  G01 Y108.5
N190  G02 X9.5 Z-20 I9.5 K0
N200  G01 Y106.5
N210  G03 X-9.5 I-9.5 K0
N220  G01 Y104.5
N230  G02 X9.5 Z-20 I9.5 K0
N240  G01 Y103.5
N250  G01 X7.5 Y102.5
N260  G03 X-7.5 I-7.5 K0
N270  G01 Y100.5
N280  G02 X7.5 Z-20 I7.5 K0
N290  G01 Y98.5
N300  G03 X-7.5 I-7.5 K0
N310  G01 Y96.5
N320  G02 X7.5 Z-20 I7.5 K0
N330  G01 Y94.5
N340  G03 X-7.5 I-7.5 K0
N350  G01 Y92.5
N360  G02 X7.5 Z-20 I7.5 K0
N370  G01 Y90.5
N380  G03 X-7.5 I-7.5 K0
N390  G01 Y88.5
N400  G02 X7.5 Z-20 I7.5 K0
N410  G01 Y86.5
N420  G03 X-7.5 I-7.5 K0
N430  G01 Y84.5
N440  G02 X7.5 Z-20 I7.5 K0
N450  G01 Y82.5
N460  G03 X-7.5 I-7.5 K0
N470  G01 Y80.5
N480  G02 X7.5 Z-20 I7.5 K0
N490  G01 Y78.5
N500  G03 X-7.5 I-7.5 K0
N510  G01 Y76.5
N520  G02 X7.5 Z-20 I7.5 K0
N530  G01 Y74.5
N540  G03 X-7.5 I-7.5 K0
N550  G01 Y73.487
N560  G01 X-12.243 Y72.5
N570  G02 X12.243 Z-20 I12.243 K0
N580  G01 X14.928 Y70.5
N590  G03 X-14.928 I-14.928 K0
N600  G01 X-16.367 Y68.5
N610  G02 X16.367 Z-20 I16.367 K0
N620  G01 X17.165 Y66.5
N630  G03 X-17.165 I-17.165 K0
N640  G01 X-17.487 Y64.5
N650  G02 X17.487 Z-20 I17.487 K0
N660  G01 X17.5 Y64
N670  G01 Y62.5
N680  G03 X-17.5 I-17.5 K0
N690  G01 Y60.5
N700  G02 X17.5 Z-20 I17.5 K0
N710  G01 Y58.5
N720  G03 X-17.5 I-17.5 K0
N730  G01 Y56.5
N740  G02 X17.5 Z-20 I17.5 K0
N750  G01 Y54.5
N760  G03 X-17.5 I-17.5 K0
N770  G01 Y52.5
N780  G02 X17.5 Z-20 I17.5 K0
N790  G01 Y50.5
N800  G03 X-17.5 I-17.5 K0
N810  G01 Y48.5
N820  G02 X17.5 Z-20 I17.5 K0
N830  G01 Y46.5
N840  G03 X-17.5 I-17.5 K0
N850  G01 Y44.5
N860  G02 X17.5 Z-20 I17.5 K0
N870  G01 Y42.5
N880  G03 X-17.5 I-17.5 K0
N890  G01 Y40.5
N900  G02 X17.5 Z-20 I17.5 K0
N910  G01 Y38.5
N920  G03 X-17.5 I-17.5 K0
N930  G01 Y36.5
N940  G02 X17.5 Z-20 I17.5 K0
N950  G01 Y34.5
N960  G03 X-17.5 I-17.5 K0
N970  G01 Y32.5
N980  G02 X17.5 Z-20 I17.5 K0
N990  G01 Y30.5
N1000  G03 X-17.5 I-17.5 K0
N1010  G01 Y28.5
N1020  G02 X17.5 Z-20 I17.5 K0
N1030  G01 Y26.5
N1040  G03 X-17.5 I-17.5 K0
N1050  G01 Y24.5
N1060  G02 X17.5 Z-20 I17.5 K0
N1070  G01 Y22.5
N1080  G03 X-17.5 I-17.5 K0
N1090  G01 Y20.5
N1100  G02 X17.5 I17.5 K0
N1110  G01 Y18.5
N1120  G03 X-17.5 I-17.5 K0
N1130  G01 Y16.5
N1140  G02 X17.5 I17.5 K0
N1150  G01 Y14.5
N1160  G03 X-17.5 I-17.5 K0
N1170  G01 Y12.5
N1180  G02 X17.5 I17.5 K0
N1190  G01 Y10.5
N1200  G03 X-17.5 I-17.5 K0
N1210  G01 Y10
N1220  G01 X-17.381 Y8.5
N1230  G02 X17.381 I17.381 K0
N1240  G01 X16.832 Y6.5
N1250  G03 X-16.832 I-16.832 K0
N1260  G01 X-15.746 Y4.5
N1270  G02 X15.746 I15.746 K0
N1280  G01 X13.831 Y2.5
N1290  G03 X-13.831 I-13.831 K0
N1300  G00 Z5
N1310  G00 X-17.5 Y10

N1320  G01 Z-20
N1330  G01 Y64
N1340  G02 X-7.5 Y73.487 I9.5 J0
N1350  G01 Y102.5
N1360  G01 X-8.5
N1370  G02 X-9.5 Y103.5 I0 J1
N1380  G01 Y120
N1390  G02 X-7 Y122.5 I2.5 J0
N1400  G01 X0
N1410  G01 X7
N1420  G02 X9.5 Y120 I0 J-2.5
N1430  G01 Y103.5
N1440  G02 X8.5 Y102.5 I-1 J0
N1450  G01 X7.5
N1460  G01 Y73.487
N1470  G02 X17.5 Y64 I0.5 J-9.487
N1480  G01 Y10
N1490  G02 X8 Y0.5 I-9.5 J0
N1500  G01 X0
N1510  G01 X-8
N1520  G02 X-17.5 Y10 I0 J9.5
N1530  G00 Z5

G92 X110 T1 (dia 10mm)
G01 Y127 X-11.5
G01 Z-20
G01 X13.5
G01 Y80
G01 X22 Y70
G01 Y-3
G01 X-20
G01 Y70
G01 X-12 Y80
G01 Y127
G01 Y117
G01 X7.5
G01 X3.5
G01 Y75
G01 X12 Y70
G01 Y0
G01 X-13
G01 Y65
G01 X-7 Y75
G01 Y117
G01 Y8
G01 X3
G01 Y75

N20  G00 Z-20.01
N30  G00 Y120
N40  G00 X-9.449 Y120.5 T4 (dia 4mm)
N50  G01 Z-20 F200 S150
N60  G03 X9.449 Z-20 I9.449 K0
N70  G01 X9.5 Y120
N80  G01 Y118.5
N90  G02 X-9.5 I-9.5 K0
N100  G01 Y116.5
N110  G03 X9.5 Z-20 I9.5 K0
N120  G01 Y114.5
N130  G02 X-9.5 I-9.5 K0
N140  G01 Y112.5
N150  G03 X9.5 Z-20 I9.5 K0
N160  G01 Y110.5
N170  G02 X-9.5 I-9.5 K0
N180  G01 Y108.5
N190  G03 X9.5 Z-20 I9.5 K0
N200  G01 Y106.5
N210  G02 X-9.5 I-9.5 K0
N220  G01 Y104.5
N230  G03 X9.5 Z-20 I9.5 K0
N240  G01 Y103.5
N250  G01 X7.5 Y102.5
N260  G02 X-7.5 I-7.5 K0
N270  G01 Y100.5
N280  G03 X7.5 Z-20 I7.5 K0
N290  G01 Y98.5
N300  G02 X-7.5 I-7.5 K0
N310  G01 Y96.5
N320  G03 X7.5 Z-20 I7.5 K0
N330  G01 Y94.5
N340  G02 X-7.5 I-7.5 K0
N350  G01 Y92.5
N360  G03 X7.5 Z-20 I7.5 K0
N370  G01 Y90.5
N380  G02 X-7.5 I-7.5 K0
N390  G01 Y88.5
N400  G03 X7.5 Z-20 I7.5 K0
N410  G01 Y86.5
N420  G02 X-7.5 I-7.5 K0
N430  G01 Y84.5
N440  G03 X7.5 Z-20 I7.5 K0
N450  G01 Y82.5
N460  G02 X-7.5 I-7.5 K0
N470  G01 Y80.5
N480  G03 X7.5 Z-20 I7.5 K0
N490  G01 Y78.5
N500  G02 X-7.5 I-7.5 K0
N510  G01 Y76.5
N520  G03 X7.5 Z-20 I7.5 K0
N530  G01 Y74.5
N540  G02 X-7.5 I-7.5 K0
N550  G01 Y73.487
N560  G01 X-12.243 Y72.5
N570  G03 X12.243 Z-20 I12.243 K0
N580  G01 X14.928 Y70.5
N590  G02 X-14.928 I-14.928 K0
N600  G01 X-16.367 Y68.5
N610  G03 X16.367 Z-20 I16.367 K0
N620  G01 X17.165 Y66.5
N630  G02 X-17.165 I-17.165 K0
N640  G01 X-17.487 Y64.5
N650  G03 X17.487 Z-20 I17.487 K0
N660  G01 X17.5 Y64
N670  G01 Y62.5
N680  G02 X-17.5 I-17.5 K0
N690  G01 Y60.5
N700  G03 X17.5 Z-20 I17.5 K0
N710  G01 Y58.5
N720  G02 X-17.5 I-17.5 K0
N730  G01 Y56.5
N740  G03 X17.5 Z-20 I17.5 K0
N750  G01 Y54.5
N760  G02 X-17.5 I-17.5 K0
N770  G01 Y52.5
N780  G03 X17.5 Z-20 I17.5 K0
N790  G01 Y50.5
N800  G02 X-17.5 I-17.5 K0
N810  G01 Y48.5
N820  G03 X17.5 Z-20 I17.5 K0
N830  G01 Y46.5
N840  G02 X-17.5 I-17.5 K0
N850  G01 Y44.5
N860  G03 X17.5 Z-20 I17.5 K0
N870  G01 Y42.5
N880  G02 X-17.5 I-17.5 K0
N890  G01 Y40.5
N900  G03 X17.5 Z-20 I17.5 K0
N910  G01 Y38.5
N920  G02 X-17.5 I-17.5 K0
N930  G01 Y36.5
N940  G03 X17.5 Z-20 I17.5 K0
N950  G01 Y34.5
N960  G02 X-17.5 I-17.5 K0
N970  G01 Y32.5
N980  G03 X17.5 Z-20 I17.5 K0
N990  G01 Y30.5
N1000  G02 X-17.5 I-17.5 K0
N1010  G01 Y28.5
N1020  G03 X17.5 Z-20 I17.5 K0
N1030  G01 Y26.5
N1040  G02 X-17.5 I-17.5 K0
N1050  G01 Y24.5
N1060  G03 X17.5 Z-20 I17.5 K0
N1070  G01 Y22.5
N1080  G02 X-17.5 I-17.5 K0
N1090  G01 Y20.5
N1100  G03 X17.5 I17.5 K0
N1110  G01 Y18.5
N1120  G02 X-17.5 I-17.5 K0
N1130  G01 Y16.5
N1140  G03 X17.5 I17.5 K0
N1150  G01 Y14.5
N1160  G02 X-17.5 I-17.5 K0
N1170  G01 Y12.5
N1180  G03 X17.5 I17.5 K0
N1190  G01 Y10.5
N1200  G02 X-17.5 I-17.5 K0
N1210  G01 Y10
N1220  G01 X-17.381 Y8.5
N1230  G03 X17.381 I17.381 K0
N1240  G01 X16.832 Y6.5
N1250  G02 X-16.832 I-16.832 K0
N1260  G01 X-15.746 Y4.5
N1270  G03 X15.746 I15.746 K0
N1280  G01 X13.831 Y2.5
N1290  G02 X-13.831 I-13.831 K0
N1300  G00 Z5
N1310  G00 X-17.5 Y10

N1320  G01 Z-20
N1330  G01 Y64
N1340  G02 X-7.5 Y73.487 I9.5 J0
N1350  G01 Y102.5
N1360  G01 X-8.5
N1370  G02 X-9.5 Y103.5 I0 J1
N1380  G01 Y120
N1390  G02 X-7 Y122.5 I2.5 J0
N1400  G01 X0
N1410  G01 X7
N1420  G02 X9.5 Y120 I0 J-2.5
N1430  G01 Y103.5
N1440  G02 X8.5 Y102.5 I-1 J0
N1450  G01 X7.5
N1460  G01 Y73.487
N1470  G02 X17.5 Y64 I0.5 J-9.487
N1480  G01 Y10
N1490  G02 X8 Y0.5 I-9.5 J0
N1500  G01 X0
N1510  G01 X-8
N1520  G02 X-17.5 Y10 I0 J9.5
N1530  G00 Z5
N1540  M30
