($Message("IMPORTANT! Remember to load the corresponding machine settings file for the example. Use the [Files -> Load machine settings] to open machine settings file.") )

%
N10 G00 Z2 M09
N20 G00 X-4 Y147 T8
N30 G01 Z-45 F100 S2500 M03 M08
N40 G01 X36 F61
N50 G01 Y140
N60 G01 X-4
N70 G01 Y133
N80 G01 X36
N90 G01 Y129
N100 G01 X1
N110 G01 Y126
N120 G01 X-4
N130 G01 Y119
N140 G01 X1
N150 G01 Y112
N160 G01 X-4
N170 G01 Y105
N180 G01 X1
N190 G01 Y98
N200 G01 X-4
N210 G01 Y91
N220 G01 X1
N230 G01 Y87.292
N240 G01 X9.23 Y84
N250 G01 X-4
N260 G01 Y77
N270 G01 X26
N280 G01 Y70
N290 G01 X-4
N300 G01 Y63
N310 G01 X1
N320 G01 Y56
N330 G01 X-4
N340 G01 Y49
N350 G01 X1
N360 G01 Y42
N370 G01 X-4
N380 G01 Y35
N390 G01 X1
N400 G01 Y28
N410 G01 X-4
N420 G01 Y21
N430 G01 X4.056
N440 G01 X18.056 Y14
N450 G01 X-4
N460 G01 Y7
N470 G01 X32.056
N480 G01 X44.056 Y1
N490 G01 X124
N500 G01 Y7
N510 G01 X154
N520 G01 Y0
N530 G01 X-4
N540 G00 Z2 M09
N550 G00 X154 Y147
N560 G01 Z-45 F100 M08
N570 G01 X124 F61
N580 G01 Y140
N590 G01 X154
N600 G01 Y133
N610 G01 X140.196
N620 G02 X147.649 Y126 I-5.196 J-13
N630 G01 X154
N640 G01 Y119
N650 G01 X148.964
N660 G02 X146.489 Y112 I-13.964 J1
N670 G01 X154
N680 G01 Y105
N690 G01 X124
N700 G01 Y104
N710 G01 X135
N720 G02 X146.489 Y98 I0 J-14
N730 G01 X154
N740 G01 Y91
N750 G01 X148.964
N760 G02 X149 Y90 I-13.964 J-1
N770 G02 X147.649 Y84 I-14 J0
N780 G01 X154
N790 G01 Y77
N800 G01 X140.196
N810 G02 X135 Y76 I-5.196 J13
N820 G01 X124
N830 G01 Y74
N840 G01 X135
N850 G02 X144.798 Y70 I0 J-14
N860 G01 X154
N870 G01 Y63
N880 G01 X148.675
N890 G02 X149 Y60 I-13.675 J-3
N900 G02 X148.416 Y56 I-14 J0
N910 G01 X154
N920 G01 Y49
N930 G01 X143.66
N940 G02 X135 Y46 I-8.66 J11
N950 G01 X124
N960 G01 Y44
N970 G01 X135
N980 G02 X142.211 Y42 I0 J-14
N990 G01 X154
N1000 G01 Y35
N1010 G01 X148.077
N1020 G02 X149 Y30 I-13.077 J-5
N1030 G02 X148.856 Y28 I-14 J0
N1040 G01 X154
N1050 G01 Y21
N1060 G01 X145.724
N1070 G02 X135 Y16 I-10.724 J9
N1080 G01 X124
N1090 G01 Y14
N1100 G01 X154
N1110 G00 Z2 M09
N1120 G00 Y-4
N1130 G01 Z-45 F100 M08
N1140 G01 X-4 F61
N1150 G01 Y154
N1160 G01 X154
N1170 G01 Y-4
N1180 G00 Z2 M09
N1190 G00 X44.056 Y1
N1200 G01 Z-45 F100 M08
N1210 G01 X1 Y22.528 F61
N1220 G01 Y69
N1230 G01 X26
N1240 G01 Y77.292
N1250 G01 X1 Y87.292
N1260 G01 Y129
N1270 G01 X36
N1280 G01 Y149
N1290 G01 X124
N1300 G01 Y134
N1310 G01 X135
N1320 G02 X149 Y120 I0 J-14
N1330 G02 X135 Y106 I-14 J0
N1340 G01 X124
N1350 G01 Y104
N1360 G01 X135
N1370 G02 X149 Y90 I0 J-14
N1380 G02 X135 Y76 I-14 J0
N1390 G01 X124
N1400 G01 Y74
N1410 G01 X135
N1420 G02 X149 Y60 I0 J-14
N1430 G02 X135 Y46 I-14 J0
N1440 G01 X124
N1450 G01 Y44
N1460 G01 X135
N1470 G02 X149 Y30 I0 J-14
N1480 G02 X135 Y16 I-14 J0
N1490 G01 X124
N1500 G01 Y1
N1510 G01 X44.056
N1520 G00 Z2 M09
N1530 G00 X135 Y19.608 T1
N1540 G01 Z-35 F100 M08
N1550 G01 X126 Y24.804 F61
N1560 G01 Y35.196
N1570 G01 X135 Y40.392
N1580 G01 X144 Y35.196
N1590 G01 Y24.804
N1600 G01 X135 Y19.608
N1610 G00 Z2 M09
N1620 G00 X126 Y54.804
N1630 G01 Z-35 F100 M08
N1640 G01 Y65.196 F61
N1650 G01 X135 Y70.392
N1660 G01 X144 Y65.196
N1670 G01 Y54.804
N1680 G01 X135 Y49.608
N1690 G01 X126 Y54.804
N1700 G00 Z2 M09
N1710 G00 Y84.804
N1720 G01 Z-35 F100 M08
N1730 G01 Y95.196 F61
N1740 G01 X135 Y100.392
N1750 G01 X144 Y95.196
N1760 G01 Y84.804
N1770 G01 X135 Y79.608
N1780 G01 X126 Y84.804
N1790 G00 Z2 M09
N1800 G00 Y114.804
N1810 G01 Z-35 F100 M08
N1820 G01 Y125.196 F61
N1830 G01 X135 Y130.392
N1840 G01 X144 Y125.196
N1850 G01 Y114.804
N1860 G01 X135 Y109.608
N1870 G01 X126 Y114.804
N1880 G00 Z2 M09
N1890 G00 X125 Y145
N1900 G01 Z-35 F100 M08
N1910 G01 Y130 F61
N1920 G01 Y110
N1930 G01 Y100
N1940 G01 Y80
N1950 G01 Y70
N1960 G01 Y50
N1970 G01 Y40
N1980 G01 Y20
N1990 G01 Y5
N2000 G01 Z-25 F100
N2010 G01 X135 Y17 F61
N2020 G01 Y140
N2030 G00 Z2 M09
N2040 G00 X120 Y130 T2
N2050 G01 Z-25 F100 M08
N2060 G01 Y145 F61
N2070 G01 X40
N2080 G01 Y125
N2090 G01 X5
N2100 G01 Y90
N2110 G01 X30 Y80
N2120 G01 Y65
N2130 G01 X5
N2140 G01 Y25
N2150 G01 X45 Y5
N2160 G01 X120
N2170 G01 Y20
N2180 G01 Y40
N2190 G01 Y50
N2200 G01 Y70
N2210 G01 Y80
N2220 G01 Y100
N2230 G01 Y110
N2240 G01 Y130
N2250 G00 Z2 M09
N2260 G00 X36 Y72.5 T5
N2270 G01 Z-30 F100 M08
N2280 G01 X68.122 F61
N2290 G02 X68.873 Y71 I-3.122 J-2.5
N2300 G01 X36
N2310 G01 Y69.5
N2320 G01 X69
N2330 G01 Y68.09
N2340 G03 X69 Y68 I11 J0
N2350 G01 X36
N2360 G01 Y66.5
N2370 G01 X69.116
N2380 G03 X69.443 Y65 I10.884 J1.59
N2390 G01 X36
N2400 G01 Y63.5
N2410 G01 X70.003
N2420 G03 X70.84 Y62 I9.997 J4.59
N2430 G01 X36
N2440 G01 Y60.5
N2450 G01 X72.038
N2460 G03 X73.806 Y59 I7.962 J7.59
N2470 G01 X11
N2480 G01 Y57.5
N2490 G01 X77.025
N2500 G03 X82.975 I2.975 J10.59
N2510 G01 X91.826
N2520 G03 X90.691 Y56 I8.174 J-7.361
N2530 G01 X11
N2540 G01 Y54.5
N2550 G01 X89.901
N2560 G03 X89.378 Y53 I10.099 J-4.361
N2570 G01 X11
N2580 G01 Y51.5
N2590 G01 X89.084
N2600 G03 X89.001 Y50 I10.916 J-1.361
N2610 G01 X11
N2620 G01 Y48.5
N2630 G01 X89.123
N2640 G03 X89.457 Y47 I10.877 J1.639
N2650 G01 X11
N2660 G01 Y45.5
N2670 G01 X90.026
N2680 G03 X90.873 Y44 I9.974 J4.639
N2690 G01 X11
N2700 G01 Y42.5
N2710 G01 X92.085
N2720 G03 X93.878 Y41 I7.915 J7.639
N2730 G01 X11
N2740 G01 Y39.5
N2750 G01 X97.206
N2760 G03 X102.794 I2.794 J10.639
N2770 G01 X114
N2780 G01 Y38
N2790 G01 X11
N2800 G01 Y36.5
N2810 G01 X114
N2820 G01 Y35
N2830 G01 X11
N2840 G01 Y33.5
N2850 G01 X114
N2860 G01 Y32
N2870 G01 X11
N2880 G01 Y30.5
N2890 G01 X114
N2900 G01 Y29
N2910 G01 X11
N2920 G01 Y28.708
N2930 G01 X13.416 Y27.5
N2940 G01 X114
N2950 G01 Y26
N2960 G01 X16.416
N2970 G01 X19.416 Y24.5
N2980 G01 X114
N2990 G01 Y23
N3000 G01 X22.416
N3010 G01 X25.416 Y21.5
N3020 G01 X114
N3030 G01 Y20
N3040 G01 X28.416
N3050 G01 X31.416 Y18.5
N3060 G01 X114
N3070 G01 Y17
N3080 G01 X34.416
N3090 G01 X37.416 Y15.5
N3100 G01 X114
N3110 G01 Y14
N3120 G01 X40.416
N3130 G01 X43.416 Y12.5
N3140 G01 X114
N3150 G00 Z2 M09
N3160 G00 X104.182 Y63.5
N3170 G01 Z-30 F100 M08
N3180 G01 X95.818 F61
N3190 G03 X93.739 Y62.661 I4.182 J-13.361
N3200 G01 X92.416 Y62
N3210 G01 X107.438
N3220 G02 X109.416 Y60.5 I-7.438 J-11.861
N3230 G01 X103.695
N3240 G02 X106.518 Y59 I-3.695 J-10.361
N3250 G01 X110.839
N3260 G02 X111.909 Y57.5 I-10.839 J-8.861
N3270 G01 X108.174
N3280 G02 X109.309 Y56 I-8.174 J-7.361
N3290 G01 X112.714
N3300 G02 X113.304 Y54.5 I-12.714 J-5.861
N3310 G01 X110.099
N3320 G02 X110.622 Y53 I-10.099 J-4.361
N3330 G01 X113.705
N3340 G02 X113.934 Y51.5 I-13.705 J-2.861
N3350 G01 X110.916
N3360 G02 X111 Y50.139 I-10.916 J-1.361
N3370 G02 X110.999 Y50 I-11 J0
N3380 G01 X114
N3390 G01 Y48.5
N3400 G01 X110.877
N3410 G02 X110.543 Y47 I-10.877 J1.639
N3420 G01 X114
N3430 G01 Y45.5
N3440 G01 X109.974
N3450 G02 X109.127 Y44 I-9.974 J4.639
N3460 G01 X114
N3470 G01 Y42.5
N3480 G01 X107.915
N3490 G02 X106.122 Y41 I-7.915 J7.639
N3500 G01 X114
N3510 G00 Z2 M09
N3520 G00 X89.416 Y60.5
N3530 G01 Z-30 F100 M08
N3540 G01 X96.305 F61
N3550 G03 X93.482 Y59 I3.695 J-10.361
N3560 G01 X86.416
N3570 G00 Z2 M09
N3580 G00 X114 Y11
N3590 G01 Z-30 F100 M08
N3600 G01 X46.416 F61
N3610 G01 X11 Y28.708
N3620 G01 Y59
N3630 G01 X36
N3640 G01 Y74
N3650 G01 X65
N3660 G02 X69 Y70 I0 J-4
N3670 G01 Y68.09
N3680 G03 X84.919 Y58.251 I11 J0
N3690 G01 X93.739 Y62.661
N3700 G02 X114 Y50.139 I6.261 J-12.522
N3710 G01 Y11
N3720 G00 Z2 M09
N3730 G00 X111 Y50.139
N3740 G01 Z-30 F100 M08
N3750 G02 I-11 J0 F61
N3760 G00 Z2 M09
N3770 G00 X73.126 Y31.548 T1
N3780 G81 Z-45 M08
N3790 G00 X64.696 Y22.508
N3800 G81 Z-45
N3810 G00 X52.563 Y20.149
N3820 G81 Z-45
N3830 G00 X41.36 Y25.373
N3840 G81 Z-45
N3850 G00 X35.367 Y36.184
N3860 G81 Z-45
N3870 G00 X36.874 Y48.452
N3880 G81 Z-45
N3890 G00 X45.304 Y57.492
N3900 G81 Z-45
N3910 G00 X57.437 Y59.851
N3920 G81 Z-45
N3930 G00 X68.64 Y54.627
N3940 G81 Z-45
N3950 G00 X74.633 Y43.816
N3960 G81 Z-45
N3970 G00 X105 Y50.139
N3980 G01 Z-45 F100
N3990 G03 I-5 J0 F61
N4000 G03 X96.5 I-4.25 J0
N4010 G00 Z2 M09
N4020 G00 X110
N4030 G01 Z-10 F100 M08
N4040 G02 I-10 J0 F61
N4050 G00 Z2 M09
N4060 G00 X47 Y134.5 T4
N4070 G01 Z-35 F100 M08
N4080 G01 X68.653 F61
N4090 G03 X63.029 Y131 I11.347 J-24.5
N4100 G01 X47
N4110 G01 Y127.5
N4120 G01 X59.439
N4130 G03 X56.913 Y124 I20.561 J-17.5
N4140 G01 X47
N4150 G01 Y120.5
N4160 G01 X55.125
N4170 G03 X53.923 Y117 I24.875 J-10.5
N4180 G01 X12
N4190 G01 Y113.5
N4200 G01 X53.228
N4210 G03 X53 Y110 I26.772 J-3.5
N4220 G01 X12
N4230 G01 Y106.5
N4240 G01 X53.228
N4250 G03 X53.923 Y103 I26.772 J3.5
N4260 G01 X12
N4270 G01 Y99.5
N4280 G01 X55.125
N4290 G03 X56.913 Y96 I24.875 J10.5
N4300 G01 X12
N4310 G01 Y94.739
N4320 G01 X17.598 Y92.5
N4330 G01 X59.439
N4340 G03 X63.029 Y89 I20.561 J17.5
N4350 G01 X26.348
N4360 G01 X35.098 Y85.5
N4370 G01 X68.653
N4380 G03 X91.347 I11.347 J24.5
N4390 G01 X112.441
N4400 G02 X110.777 Y82 I-12.441 J3.771
N4410 G01 X70
N4420 G02 X76.062 Y78.5 I0 J-7
N4430 G01 X107.28
N4440 G02 X105.814 Y77.643 I-7.28 J10.771
N4450 G01 X100.528 Y75
N4460 G01 X77
N4470 G01 Y71.5
N4480 G01 X93.528
N4490 G01 X86.528 Y68
N4500 G01 X77.001
N4510 G00 Z2 M09
N4520 G00 X113 Y134.5
N4530 G01 Z-35 F100 M08
N4540 G01 X91.347 F61
N4550 G02 X96.971 Y131 I-11.347 J-24.5
N4560 G01 X113
N4570 G01 Y127.5
N4580 G01 X100.561
N4590 G02 X103.087 Y124 I-20.561 J-17.5
N4600 G01 X113
N4610 G01 Y120.5
N4620 G01 X104.875
N4630 G02 X106.077 Y117 I-24.875 J-10.5
N4640 G01 X113
N4650 G01 Y113.5
N4660 G01 X106.772
N4670 G02 X107 Y110 I-26.772 J-3.5
N4680 G01 X113
N4690 G01 Y106.5
N4700 G01 X106.772
N4710 G02 X106.077 Y103 I-26.772 J3.5
N4720 G01 X113
N4730 G01 Y99.5
N4740 G01 X104.875
N4750 G02 X103.087 Y96 I-24.875 J10.5
N4760 G01 X113
N4770 G01 Y92.5
N4780 G01 X100.561
N4790 G02 X96.971 Y89 I-20.561 J17.5
N4800 G01 X112.997
N4810 G00 Z2 M09
N4820 G00 X105.814 Y77.643
N4830 G01 Z-35 F100 M08
N4840 G01 X81.342 Y65.407 F61
N4850 G02 X77 Y68.09 I-1.342 J2.683
N4860 G01 Y75
N4870 G03 X70 Y82 I-7 J0
N4880 G01 X37
N4890 G01 Y84.739
N4900 G01 X12 Y94.739
N4910 G01 Y118
N4920 G01 X47
N4930 G01 Y138
N4940 G01 X113
N4950 G01 Y89.271
N4960 G02 X105.814 Y77.643 I-13 J0
N4970 G00 Z2 M09
N4980 G00 X107 Y110
N4990 G01 Z-35 F100 M08
N5000 G02 I-27 J0 F61
N5010 G00 Z2 M09
N5020 G00 X90.665 Y124.5
N5030 G01 Z-35 F100 M08
N5040 G01 X69.335 F61
N5050 G03 X65.752 Y121 I10.665 J-14.5
N5060 G01 X75.204
N5070 G03 X70.633 Y117.5 I4.796 J-11
N5080 G01 X63.637
N5090 G03 X62.45 Y114 I16.363 J-7.5
N5100 G01 X68.686
N5110 G03 X68.01 Y110.5 I11.314 J-4
N5120 G01 X62.007
N5130 G03 X62.252 Y107 I17.993 J-0.5
N5140 G01 X68.381
N5150 G03 X69.913 Y103.5 I11.619 J3
N5160 G01 X63.215
N5170 G03 X65.033 Y100 I16.785 J6.5
N5180 G01 X73.367
N5190 G03 X86.633 I6.633 J10
N5200 G01 X94.967
N5210 G02 X91.906 Y96.5 I-14.967 J10
N5220 G01 X68.094
N5230 G03 X74.084 Y93 I11.906 J13.5
N5240 G01 X85.916
N5250 G00 Z2 M09
N5260 G00 X94.248 Y121
N5270 G01 Z-35 F100 M08
N5280 G01 X84.796 F61
N5290 G02 X89.367 Y117.5 I-4.796 J-11
N5300 G01 X96.363
N5310 G02 X97.55 Y114 I-16.363 J-7.5
N5320 G01 X91.314
N5330 G02 X91.99 Y110.5 I-11.314 J-4
N5340 G01 X97.993
N5350 G02 X98 Y110 I-17.993 J-0.5
N5360 G02 X97.748 Y107 I-18 J0
N5370 G01 X91.619
N5380 G02 X90.087 Y103.5 I-11.619 J3
N5390 G01 X96.785
N5400 G00 Z2 M09
N5410 G00 X98 Y110
N5420 G01 Z-35 F100 M08
N5430 G02 I-18 J0 F61
N5440 G00 Z2 M09
N5450 G00 X92
N5460 G01 Z-35 F100 M08
N5470 G02 I-12 J0 F61
N5480 G00 Z2 M09
N5490 G00 X35 Y77.5 T1
N5500 G01 Z-25 F100 M08
N5510 G01 X65 F61
N5520 G02 X72.5 Y70 I0 J-7.5
N5530 G01 Y68.09
N5540 G03 X83.354 Y61.382 I7.5 J0
N5550 G01 X107.826 Y73.618
N5560 G03 X115 Y80.257 I-7.826 J15.652
N5570 G01 Y59.153
N5580 G03 X92.174 Y65.792 I-15 J-9.014
N5590 G00 Z2 M09
N5600 G00 X102.5 Y110
N5610 G01 Z-45 F100 M08
N5620 G02 I-22.5 J0 F61
N5630 G00 Z2 M09
N5640 G00 X89.798 Y112
N5650 G01 Z-10 F100 M08
N5660 G01 X70.202 F61
N5670 G03 X72 Y104 I9.798 J-2
N5680 G01 X88
N5690 G00 Z2 M09
N5700 G00 X90 Y110
N5710 G01 Z-10 F100 M08
N5720 G02 I-10 J0 F61
N0000 G01 X80
N0000 G81 Z-45
N5730 G00 Z2 M09
N5740 M30
