($SetPartSize(42, 12, 2, 1) )
( ** LOAD MACHINE SETTINGS Fanuc Mill.prf BEFORE SIMULATE ** )
( CALLS SUB PROGRAMS 6001.NC - 6013.NC )
G40 G54 G80 G90
T26
M06
G90 G00 X1.606 Y2.589
G00 Z0.1 S1000 M03 F100 G91
M98 P6001 L3 ( W * 3 )
M98 P6002 ( . )
G00 X2.272 Y1.784
M98 P6003 ( C )
G00 X0.787 Y-1.784
M98 P6004 ( N )
G00 X3.343 Y1.784
M98 P6003 ( C )
G00 X1.085 Y-0.127
M98 P6005 ( S )
G00 X2.091 Y4.312
M98 P6006 ( I )
G00 X0.975
M98 P6007 ( M )
G00 X4.357
M98 P6008 ( U )
G00 X0.949
M98 P6009 ( L )
G00 X2.175 Y0.598
M98 P6010 ( A )
G00 X1.687 Y-1.714
M98 P6011 ( T )
G00 X0.368 Y1.7
M98 P6012 ( O )
G00 X1.975 Y-2.432
M98 P6013 ( R )
G00 X1.465
M98 P6002 ( . )
G00 X2.272 Y1.784
M98 P6003 ( C )
G00 X0.658 Y0.646
M98 P6012 ( O )
G00 X1.969 Y-2.432
M98 P6007 ( M )
G00 G91 Z15 M09
G28 Z0 M19 
M30
%